;FLAVOR:Marlin
;TIME:220
;Filament used: 0.0914532m
;Layer height: 0.28
;MINX:111.693
;MINY:106.697
;MINZ:0.28
;MAXX:118.299
;MAXY:113.299
;MAXZ:7
;TARGET_MACHINE.NAME:Creality Ender-3
;Generated with Cura_SteamEngine 5.8.0
M140 S70
M105
M190 S70
M104 S240
M105
M109 S240
M82 ;absolute extrusion mode
; Ender 3 Custom Start G-code
M413 S0; Power Loss Off
G92 E0 ; Reset Extruder
G28 ; Home all axes
G1 Z2.0 F3000 ; Move Z Axis up little to prevent scratching of Heat Bed
G1 X0.1 Y20 Z0.3 F5000.0 ; Move to start position
G1 X0.1 Y200.0 Z0.3 F1500.0 E15 ; Draw the first line
G1 X0.4 Y200.0 Z0.3 F5000.0 ; Move to side a little
G1 X0.4 Y20 Z0.3 F1500.0 E30 ; Draw the second line
G92 E0 ; Reset Extruder
G1 Z2.0 F3000 ; Move Z Axis up little to prevent scratching of Heat Bed
G1 X5 Y20 Z0.3 F5000.0 ; Move over to prevent blob squish
G92 E0
G92 E0
G1 F2700 E-5
;LAYER_COUNT:25
;LAYER:0
;note -- min layer time used
M107
;MESH:Dystans.stl
G0 F6000 X115.242 Y112.086 Z0.28
;TYPE:WALL-INNER
G1 F2700 E0
G1 F600 X114.853 Y112.091 E0.01811
G1 X114.407 Y112.016 E0.03917
G1 X114.057 Y111.876 E0.05673
G1 X113.677 Y111.628 E0.07786
G1 X113.39 Y111.359 E0.09617
G1 X113.166 Y111.021 E0.11505
G1 X112.989 Y110.599 E0.13636
G1 X112.909 Y110.189 E0.15581
G1 X112.909 Y109.703 E0.17844
G1 X113.06 Y109.187 E0.20348
G1 X113.317 Y108.712 E0.22863
G1 X113.701 Y108.346 E0.25333
G1 X114.015 Y108.144 E0.27071
G1 X114.421 Y107.979 E0.29112
G1 X114.963 Y107.882 E0.31676
G1 X115.576 Y107.963 E0.34555
G1 X116.057 Y108.183 E0.37018
G1 X116.365 Y108.403 E0.3878
G1 X116.761 Y108.825 E0.41475
G1 X117.029 Y109.414 E0.44488
G1 X117.113 Y110.011 E0.47296
G1 X117.038 Y110.517 E0.49677
G1 X116.896 Y110.905 E0.51601
G1 X116.689 Y111.243 E0.53447
G1 X116.401 Y111.566 E0.55462
G1 X116.05 Y111.821 E0.57482
G1 X115.672 Y111.988 E0.59406
G1 X115.242 Y112.086 E0.6146
G0 F6000 X115.041 Y112.494
G1 F597 X115.36 Y112.471 E0.62957
G1 F603 X115.691 Y112.398 E0.64527
G1 F595.5 X115.989 Y112.288 E0.66017
G1 F598.5 X116.298 Y112.132 E0.67633
G1 F603 X116.563 Y111.944 E0.69139
G1 F595.5 X116.806 Y111.72 E0.70689
G1 X117.017 Y111.471 E0.7222
G1 F598.5 X117.189 Y111.197 E0.7373
G1 F592.6 X117.329 Y110.894 E0.75304
G1 F595.5 X117.429 Y110.579 E0.76854
G1 F597 X117.495 Y110.17 E0.78793
G1 F594.1 X117.483 Y109.749 E0.80774
G1 F601.5 X117.431 Y109.418 E0.8233
G1 F603 X117.335 Y109.111 E0.83821
G1 F597 X117.163 Y108.74 E0.85734
G1 X116.922 Y108.405 E0.87665
G1 F601.5 X116.695 Y108.166 E0.89196
G1 F597 X116.438 Y107.96 E0.90738
G1 F588.2 X116.088 Y107.749 E0.92679
G1 F600 X115.695 Y107.593 E0.94648
G1 F604.5 X115.371 Y107.529 E0.96174
G1 F603 X115.053 Y107.495 E0.97656
G1 F604.5 X114.715 Y107.516 E0.99221
G1 F592.6 X114.309 Y107.592 E1.01168
G1 F595.5 X113.93 Y107.743 E1.03082
G1 F600 X113.642 Y107.906 E1.04623
G1 X113.359 Y108.116 E1.06264
G1 F603 X113.145 Y108.326 E1.07653
G1 F606.1 X112.929 Y108.596 E1.09247
G1 F597 X112.73 Y108.95 E1.11148
G1 F586.8 X112.594 Y109.337 E1.13101
G1 F600 X112.52 Y109.662 E1.14653
G1 F601.5 X112.505 Y109.989 E1.16173
G1 F588.2 X112.536 Y110.412 E1.18188
G1 F591.1 X112.641 Y110.817 E1.20165
G1 F595.5 X112.76 Y111.104 E1.21623
G1 F592.6 X112.929 Y111.391 E1.23193
G1 F595.5 X113.134 Y111.664 E1.24794
G1 X113.416 Y111.934 E1.26626
G1 X113.775 Y112.174 E1.28652
G1 F598.5 X114.067 Y112.313 E1.30162
G1 F601.5 X114.384 Y112.42 E1.31716
G1 F606.1 X114.769 Y112.488 E1.33518
G1 F597 X115.041 Y112.494 E1.34791
G0 F6000 X115.047 Y112.898
G1 F600 X115.419 Y112.865 E1.3653
G1 X115.795 Y112.785 E1.3832
G1 X116.15 Y112.657 E1.40077
G1 X116.504 Y112.473 E1.41935
G1 X116.813 Y112.257 E1.4369
G1 X117.097 Y111.999 E1.45477
G1 X117.341 Y111.706 E1.47253
G1 X117.541 Y111.39 E1.48994
G1 X117.706 Y111.039 E1.508
G1 X117.818 Y110.67 E1.52596
G1 X117.898 Y110.196 E1.54834
G1 X117.882 Y109.711 E1.57093
G1 X117.821 Y109.34 E1.58844
G1 X117.709 Y108.969 E1.60649
G1 X117.511 Y108.537 E1.62862
G1 X117.23 Y108.149 E1.65092
G1 X116.966 Y107.873 E1.66871
G1 X116.671 Y107.631 E1.68647
G1 X116.265 Y107.383 E1.70863
G1 X115.806 Y107.214 E1.7314
G1 X115.432 Y107.131 E1.74924
G1 X115.06 Y107.098 E1.76663
G1 X114.669 Y107.118 E1.78486
G1 X114.196 Y107.203 E1.80724
G1 X113.757 Y107.383 E1.82933
G1 X113.424 Y107.569 E1.84709
G1 X113.111 Y107.802 E1.86526
G1 X112.848 Y108.059 E1.88239
G1 X112.601 Y108.372 E1.90095
G1 X112.363 Y108.774 E1.92271
G1 X112.204 Y109.231 E1.94524
G1 X112.128 Y109.609 E1.96319
G1 X112.102 Y109.989 E1.98093
G1 X112.135 Y110.479 E2.00379
G1 X112.261 Y110.944 E2.02623
G1 X112.398 Y111.28 E2.04312
G1 X112.595 Y111.616 E2.06126
G1 X112.834 Y111.929 E2.0796
G1 X113.163 Y112.249 E2.10097
G1 X113.577 Y112.522 E2.12406
G1 X113.917 Y112.685 E2.14162
G1 X114.286 Y112.806 E2.1597
G1 X114.654 Y112.874 E2.17712
G1 X115.047 Y112.898 E2.19546
G0 F6000 X115.053 Y113.299
;TYPE:WALL-OUTER
G1 F600 X115.478 Y113.261 E2.21533
G1 X115.905 Y113.171 E2.23565
G1 X116.311 Y113.024 E2.25575
G1 X116.712 Y112.816 E2.27679
G1 X117.063 Y112.571 E2.29672
G1 X117.387 Y112.277 E2.31709
G1 X117.665 Y111.942 E2.33736
G1 X117.892 Y111.583 E2.35714
G1 X118.08 Y111.183 E2.37772
G1 X118.208 Y110.762 E2.39821
G1 X118.299 Y110.222 E2.42371
G1 X118.28 Y109.672 E2.44933
G1 X118.212 Y109.25 E2.46924
G1 X118.084 Y108.827 E2.48982
G1 X117.858 Y108.334 E2.51507
G1 X117.538 Y107.893 E2.54044
G1 X117.239 Y107.579 E2.56063
G1 X116.903 Y107.304 E2.58085
G1 X116.44 Y107.021 E2.60612
G1 X115.919 Y106.829 E2.63197
G1 X115.493 Y106.735 E2.65228
G1 X115.068 Y106.697 E2.67215
G1 X114.623 Y106.72 E2.6929
G1 X114.084 Y106.817 E2.7184
G1 X113.583 Y107.021 E2.74359
G1 X113.206 Y107.233 E2.76373
G1 X112.851 Y107.497 E2.78433
G1 X112.55 Y107.791 E2.80392
G1 X112.27 Y108.146 E2.82498
G1 X111.999 Y108.605 E2.8498
G1 X111.818 Y109.125 E2.87544
G1 X111.731 Y109.555 E2.89586
G1 X111.701 Y109.989 E2.91612
G1 X111.739 Y110.546 E2.94212
G1 X111.882 Y111.072 E2.9675
G1 X112.037 Y111.456 E2.98678
G1 X112.263 Y111.84 E3.00753
G1 X112.534 Y112.195 E3.02833
G1 X112.911 Y112.563 E3.05286
G1 X113.379 Y112.87 E3.07892
G1 X113.767 Y113.057 E3.09898
G1 X114.186 Y113.194 E3.1195
G1 X114.605 Y113.272 E3.13935
G1 X115.053 Y113.299 E3.16025
G1 F2700 E-1.83975
G0 F6000 X115.04 Y112.599
G0 X115.223 Y112.388
G0 X115.206 Y111.688
G1 F2700 E3.16025
G1 F600 X114.876 Y111.692 E3.17561
G1 X114.53 Y111.635 E3.19194
G1 X114.232 Y111.516 E3.20688
G1 X113.93 Y111.318 E3.2237
G1 X113.681 Y111.075 E3.2399
G1 X113.511 Y110.818 E3.25425
G1 X113.382 Y110.516 E3.26954
G1 X113.308 Y110.162 E3.28638
G1 X113.309 Y109.759 E3.30515
G1 X113.44 Y109.326 E3.32621
G1 X113.638 Y108.964 E3.34542
G1 X113.951 Y108.659 E3.36577
G1 X114.21 Y108.493 E3.3801
G1 X114.532 Y108.363 E3.39627
G1 X114.949 Y108.288 E3.416
G1 X115.448 Y108.348 E3.4394
G1 X115.849 Y108.525 E3.45981
G1 X116.13 Y108.73 E3.47601
G1 X116.41 Y109.03 E3.49511
G1 X116.636 Y109.505 E3.51961
G1 X116.708 Y109.989 E3.54239
G1 X116.648 Y110.411 E3.56224
G1 X116.534 Y110.734 E3.57819
G1 X116.361 Y111.015 E3.59356
G1 X116.131 Y111.269 E3.60951
G1 X115.862 Y111.464 E3.62498
G1 X115.551 Y111.607 E3.64092
G1 X115.206 Y111.688 E3.65742
;MESH:NONMESH
G0 F300 X115.206 Y111.688 Z0.56
G0 F6000 X115.048 Y112.1
;TIME_ELAPSED:13.042180
;LAYER:1
;note -- min layer time used
M106 S42.5
;TYPE:WALL-INNER
;MESH:Dystans.stl
G1 F600 X114.639 Y112.071 E3.67651
G1 X114.232 Y111.954 E3.69623
G1 X113.856 Y111.765 E3.71583
G1 X113.534 Y111.5 E3.73525
G1 X113.263 Y111.179 E3.75481
G1 X113.015 Y110.736 E3.77845
G1 X112.913 Y110.234 E3.8023
G1 X112.909 Y109.688 E3.82773
G1 X113.059 Y109.181 E3.85235
G1 X113.267 Y108.802 E3.87248
G1 X113.533 Y108.497 E3.89132
G1 X113.832 Y108.255 E3.90923
G1 X114.234 Y108.037 E3.93053
G1 X114.676 Y107.923 E3.95178
G1 X115.037 Y107.897 E3.96864
G1 X115.427 Y107.941 E3.98691
G1 X115.873 Y108.087 E4.00876
G1 X116.231 Y108.297 E4.02809
G1 X116.544 Y108.576 E4.04761
G1 X116.791 Y108.906 E4.06681
G1 X116.985 Y109.318 E4.08801
G1 X117.108 Y109.816 E4.1119
G1 X117.074 Y110.333 E4.13602
G1 X116.986 Y110.682 E4.15278
G1 X116.792 Y111.093 E4.17395
G1 X116.548 Y111.427 E4.19321
G1 X116.205 Y111.717 E4.21412
G1 X115.864 Y111.914 E4.23246
G1 X115.447 Y112.054 E4.25294
G1 X115.048 Y112.1 E4.27164
G0 F8250 X115.053 Y112.499
G1 F598.5 X115.364 Y112.468 E4.28623
G1 F594.1 X115.693 Y112.395 E4.30208
G1 F597 X116.004 Y112.285 E4.31752
G1 F595.5 X116.293 Y112.133 E4.33284
G1 F592.6 X116.56 Y111.944 E4.34826
G1 F600 X116.808 Y111.722 E4.36376
G1 F601.5 X117.021 Y111.461 E4.37941
G1 F595.5 X117.197 Y111.182 E4.39488
G1 F600 X117.333 Y110.891 E4.40984
G1 X117.43 Y110.566 E4.42563
G1 F588.2 X117.492 Y110.168 E4.44476
G1 F601.5 X117.491 Y109.747 E4.46432
G1 F607.6 X117.43 Y109.428 E4.47925
G1 F597 X117.332 Y109.105 E4.49505
G1 F594.1 X117.171 Y108.759 E4.513
G1 F585.4 X116.97 Y108.464 E4.53003
G1 F586.8 X116.687 Y108.16 E4.54981
G1 F598.5 X116.44 Y107.957 E4.56473
G1 F603 X116.144 Y107.78 E4.58071
G1 F598.5 X115.711 Y107.594 E4.60271
G1 F595.5 X115.375 Y107.53 E4.61876
G1 X115.05 Y107.5 E4.63407
G1 X114.632 Y107.524 E4.65371
G1 X114.22 Y107.627 E4.67363
G1 F594.1 X113.928 Y107.744 E4.68843
G1 F595.5 X113.631 Y107.908 E4.70435
G1 F594.1 X113.376 Y108.103 E4.71944
G1 F589.7 X113.129 Y108.347 E4.73589
G1 F597 X112.933 Y108.592 E4.75057
G1 F598.5 X112.702 Y108.996 E4.7723
G1 F595.5 X112.593 Y109.34 E4.78923
G1 F607.6 X112.519 Y109.669 E4.80473
G1 F600 X112.502 Y110.079 E4.82384
G1 F586.8 X112.556 Y110.503 E4.84419
G1 F603 X112.631 Y110.814 E4.85901
G1 X112.766 Y111.115 E4.8743
G1 F595.5 X112.93 Y111.399 E4.88968
G1 X113.129 Y111.649 E4.90467
G1 F589.7 X113.376 Y111.894 E4.92116
G1 F595.5 X113.63 Y112.089 E4.93618
G1 F598.5 X113.931 Y112.254 E4.9522
G1 F586.8 X114.302 Y112.399 E4.97117
G1 F585.4 X114.638 Y112.473 E4.98759
G1 F597 X115.053 Y112.499 E5.00705
G0 F8250 X115.058 Y112.898
G1 F600 X115.424 Y112.865 E5.02416
G1 X115.804 Y112.782 E5.04227
G1 X116.164 Y112.652 E5.06009
G1 X116.503 Y112.478 E5.07784
G1 X116.813 Y112.256 E5.09559
G1 X117.096 Y111.997 E5.11346
G1 X117.345 Y111.697 E5.13161
G1 X117.551 Y111.373 E5.14949
G1 X117.705 Y111.033 E5.16687
G1 X117.822 Y110.658 E5.18516
G1 X117.898 Y110.193 E5.2071
G1 X117.882 Y109.71 E5.2296
G1 X117.822 Y109.337 E5.24719
G1 X117.706 Y108.963 E5.26543
G1 X117.551 Y108.623 E5.28283
G1 X117.292 Y108.214 E5.30537
G1 X116.96 Y107.863 E5.32787
G1 X116.668 Y107.63 E5.34526
G1 X116.329 Y107.425 E5.36371
G1 X115.98 Y107.27 E5.38149
G1 X115.727 Y107.188 E5.39387
G1 X115.429 Y107.132 E5.40799
G1 X115.057 Y107.098 E5.42539
G1 X114.572 Y107.125 E5.448
G1 X114.097 Y107.245 E5.47082
G1 X113.755 Y107.38 E5.48794
G1 X113.413 Y107.572 E5.5062
G1 X113.113 Y107.796 E5.52363
G1 X112.827 Y108.08 E5.5424
G1 X112.602 Y108.369 E5.55946
G1 X112.357 Y108.787 E5.58202
G1 X112.205 Y109.236 E5.60409
G1 X112.128 Y109.617 E5.62219
G1 X112.095 Y110.092 E5.64436
G1 X112.161 Y110.582 E5.66738
G1 X112.257 Y110.941 E5.68469
G1 X112.406 Y111.295 E5.70257
G1 X112.598 Y111.623 E5.72027
G1 X112.827 Y111.916 E5.73759
G1 X113.113 Y112.2 E5.75635
G1 X113.412 Y112.424 E5.77375
G1 X113.757 Y112.617 E5.79216
G1 X114.19 Y112.792 E5.8139
G1 X114.659 Y112.875 E5.83608
G1 X115.058 Y112.898 E5.85469
G0 F8250 X115.064 Y113.299
;TYPE:WALL-OUTER
G1 F600 X115.485 Y113.261 E5.87438
G1 X115.916 Y113.167 E5.89492
G1 X116.324 Y113.02 E5.91511
G1 X116.711 Y112.82 E5.93539
G1 X117.065 Y112.568 E5.95563
G1 X117.386 Y112.273 E5.97593
G1 X117.669 Y111.933 E5.99653
G1 X117.903 Y111.564 E6.01687
G1 X118.08 Y111.176 E6.03673
G1 X118.212 Y110.75 E6.0575
G1 X118.299 Y110.219 E6.08255
G1 X118.28 Y109.672 E6.10804
G1 X118.212 Y109.246 E6.12813
G1 X118.08 Y108.82 E6.14889
G1 X117.903 Y108.432 E6.16875
G1 X117.609 Y107.968 E6.19433
G1 X117.232 Y107.568 E6.21992
G1 X116.897 Y107.301 E6.23987
G1 X116.515 Y107.07 E6.26066
G1 X116.124 Y106.896 E6.28059
G1 X115.826 Y106.799 E6.29518
G1 X115.484 Y106.735 E6.31138
G1 X115.064 Y106.697 E6.33102
G1 X114.511 Y106.727 E6.3568
G1 X113.974 Y106.863 E6.3826
G1 X113.583 Y107.018 E6.40218
G1 X113.194 Y107.236 E6.42295
G1 X112.851 Y107.492 E6.44288
G1 X112.527 Y107.814 E6.46415
G1 X112.27 Y108.145 E6.48366
G1 X111.991 Y108.62 E6.50931
G1 X111.818 Y109.132 E6.53448
G1 X111.731 Y109.563 E6.55495
G1 X111.693 Y110.105 E6.58025
G1 X111.769 Y110.66 E6.60634
G1 X111.878 Y111.071 E6.62613
G1 X112.048 Y111.474 E6.6465
G1 X112.266 Y111.847 E6.66662
G1 X112.527 Y112.182 E6.68639
G1 X112.851 Y112.504 E6.70766
G1 X113.194 Y112.76 E6.72759
G1 X113.583 Y112.979 E6.74838
G1 X114.08 Y113.178 E6.77331
G1 X114.612 Y113.273 E6.79847
G1 X115.064 Y113.299 E6.81955
G1 F2700 E1.81955
G0 F8250 X115.046 Y112.599
G0 X115.043 Y111.7
G1 F2700 E6.81955
G1 F600 X114.727 Y111.676 E6.83431
G1 X114.365 Y111.575 E6.85181
G1 X114.09 Y111.435 E6.86618
G1 X113.815 Y111.215 E6.88258
G1 X113.597 Y110.959 E6.89824
G1 X113.395 Y110.594 E6.91766
G1 X113.309 Y110.18 E6.93735
G1 X113.311 Y109.732 E6.95821
G1 X113.426 Y109.351 E6.97674
G1 X113.594 Y109.039 E6.99324
G1 X113.815 Y108.781 E7.00906
G1 X114.079 Y108.57 E7.0248
G1 X114.402 Y108.407 E7.04164
G1 X114.729 Y108.32 E7.0574
G1 X115.038 Y108.3 E7.07182
G1 X115.353 Y108.335 E7.08658
G1 X115.71 Y108.453 E7.10408
G1 X115.974 Y108.605 E7.11827
G1 X116.254 Y108.85 E7.13559
G1 X116.453 Y109.12 E7.15121
G1 X116.606 Y109.445 E7.16794
G1 X116.702 Y109.82 E7.18596
G1 X116.675 Y110.286 E7.2077
G1 X116.604 Y110.564 E7.22106
G1 X116.446 Y110.891 E7.23797
G1 X116.262 Y111.141 E7.25242
G1 X115.973 Y111.391 E7.27022
G1 X115.693 Y111.549 E7.28519
G1 X115.342 Y111.663 E7.30237
G1 X115.043 Y111.7 E7.3164
;MESH:NONMESH
G0 F300 X115.043 Y111.7 Z0.84
G0 F8250 X115.171 Y112.111
;TIME_ELAPSED:21.658012
;LAYER:2
;note -- min layer time used
M106 S85
;TYPE:WALL-INNER
;MESH:Dystans.stl
G1 F600 X114.532 Y112.06 E7.34625
G1 X114.047 Y111.874 E7.37044
G1 X113.709 Y111.657 E7.38914
G1 X113.396 Y111.364 E7.40911
G1 X113.165 Y111.023 E7.42828
G1 X112.992 Y110.621 E7.44866
G1 X112.913 Y110.234 E7.46705
G1 X112.909 Y109.687 E7.49253
G1 X113.066 Y109.171 E7.51764
G1 X113.264 Y108.814 E7.53665
G1 X113.533 Y108.493 E7.55615
G1 X113.854 Y108.235 E7.57533
G1 X114.243 Y108.037 E7.59565
G1 X114.755 Y107.897 E7.62037
G1 X115.299 Y107.919 E7.64572
G1 X115.696 Y108.014 E7.66473
G1 X116.081 Y108.2 E7.68464
G1 X116.414 Y108.445 E7.70389
G1 X116.691 Y108.752 E7.72314
G1 X116.902 Y109.114 E7.74265
G1 X117.047 Y109.508 E7.7622
G1 X117.1 Y109.93 E7.78201
G1 X117.072 Y110.409 E7.80435
G1 X116.904 Y110.882 E7.82772
G1 X116.697 Y111.236 E7.84682
G1 X116.41 Y111.555 E7.8668
G1 X116.071 Y111.81 E7.88655
G1 X115.693 Y111.98 E7.90585
G1 X115.171 Y112.111 E7.93091
G0 F10500 X115.053 Y112.5
G1 F606.1 X115.364 Y112.472 E7.9453
G1 F601.5 X115.694 Y112.396 E7.96103
G1 F595.5 X116.003 Y112.283 E7.97647
G1 F597 X116.295 Y112.136 E7.99177
G1 F600 X116.561 Y111.945 E8.00702
G1 F597 X116.805 Y111.719 E8.02258
G1 F600 X117.023 Y111.463 E8.03824
G1 X117.196 Y111.182 E8.0536
G1 F594.1 X117.329 Y110.89 E8.06869
G1 F595.5 X117.452 Y110.514 E8.08725
G1 F591.1 X117.493 Y110.168 E8.10372
G1 F588.2 X117.494 Y109.829 E8.11982
G1 F597 X117.433 Y109.427 E8.13885
G1 X117.329 Y109.106 E8.15464
G1 F591.1 X117.196 Y108.814 E8.1698
G1 F595.5 X117.022 Y108.534 E8.18527
G1 F597 X116.805 Y108.277 E8.20101
G1 F595.5 X116.56 Y108.052 E8.21661
G1 F597 X116.294 Y107.861 E8.23194
G1 F595.5 X116.003 Y107.713 E8.24725
G1 F597 X115.694 Y107.599 E8.26267
G1 F601.5 X115.364 Y107.526 E8.27837
G1 F595.5 X115.051 Y107.503 E8.29309
G1 F592.6 X114.671 Y107.51 E8.31101
G1 F600 X114.204 Y107.631 E8.33347
G1 F597 X113.928 Y107.743 E8.34741
G1 X113.63 Y107.906 E8.36331
G1 F598.5 X113.375 Y108.101 E8.37829
G1 F592.6 X113.128 Y108.346 E8.39469
G1 F597 X112.933 Y108.593 E8.40942
G1 F595.5 X112.726 Y108.955 E8.42898
G1 F591.1 X112.593 Y109.341 E8.44828
G1 F606.1 X112.519 Y109.669 E8.46378
G1 F600 X112.502 Y110.079 E8.48289
G1 F586.8 X112.557 Y110.503 E8.50324
G1 F594.1 X112.638 Y110.811 E8.51822
G1 F597 X112.76 Y111.104 E8.53307
G1 X112.937 Y111.403 E8.54933
G1 F600 X113.125 Y111.653 E8.5639
G1 F601.5 X113.374 Y111.896 E8.58006
G1 F597 X113.632 Y112.086 E8.59505
G1 F595.5 X113.929 Y112.257 E8.61113
G1 F594.1 X114.301 Y112.403 E8.62993
G1 F603 X114.585 Y112.469 E8.64343
G1 F609.1 X115.053 Y112.5 E8.66495
G0 F10500 X115.058 Y112.898
G1 F600 X115.424 Y112.866 E8.68205
G1 X115.805 Y112.782 E8.70022
G1 X116.163 Y112.652 E8.71796
G1 X116.503 Y112.478 E8.73574
G1 X116.813 Y112.256 E8.7535
G1 X117.096 Y111.997 E8.77136
G1 X117.345 Y111.697 E8.78951
G1 X117.55 Y111.373 E8.80737
G1 X117.705 Y111.033 E8.82477
G1 X117.822 Y110.658 E8.84306
G1 X117.898 Y110.193 E8.865
G1 X117.882 Y109.71 E8.8875
G1 X117.822 Y109.337 E8.90509
G1 X117.706 Y108.963 E8.92333
G1 X117.551 Y108.622 E8.94077
G1 X117.346 Y108.298 E8.95862
G1 X117.096 Y107.999 E8.97677
G1 X116.813 Y107.74 E8.99463
G1 X116.503 Y107.518 E9.01239
G1 X116.163 Y107.344 E9.03017
G1 X115.805 Y107.214 E9.04791
G1 X115.424 Y107.131 E9.06606
G1 X115.057 Y107.098 E9.08322
G1 X114.571 Y107.125 E9.10589
G1 X114.097 Y107.245 E9.12865
G1 X113.755 Y107.379 E9.14576
G1 X113.412 Y107.572 E9.16408
G1 X113.113 Y107.796 E9.18148
G1 X112.826 Y108.079 E9.20025
G1 X112.602 Y108.369 E9.21731
G1 X112.357 Y108.787 E9.23987
G1 X112.205 Y109.237 E9.26199
G1 X112.128 Y109.617 E9.28004
G1 X112.095 Y110.092 E9.30221
G1 X112.162 Y110.582 E9.32524
G1 X112.258 Y110.941 E9.34255
G1 X112.402 Y111.283 E9.35983
G1 X112.604 Y111.627 E9.3784
G1 X112.826 Y111.917 E9.39541
G1 X113.113 Y112.2 E9.41418
G1 X113.391 Y112.408 E9.43034
G1 X113.756 Y112.618 E9.44995
G1 X114.19 Y112.792 E9.47172
G1 X114.659 Y112.875 E9.4939
G1 X115.058 Y112.898 E9.51251
G0 F10500 X115.064 Y113.299
;TYPE:WALL-OUTER
G1 F600 X115.485 Y113.262 E9.53219
G1 X115.916 Y113.167 E9.55274
G1 X116.323 Y113.02 E9.57289
G1 X116.711 Y112.82 E9.59322
G1 X117.065 Y112.568 E9.61345
G1 X117.386 Y112.273 E9.63375
G1 X117.669 Y111.933 E9.65435
G1 X117.903 Y111.564 E9.6747
G1 X118.08 Y111.176 E9.69455
G1 X118.212 Y110.75 E9.71532
G1 X118.299 Y110.219 E9.74038
G1 X118.28 Y109.672 E9.76586
G1 X118.212 Y109.246 E9.78595
G1 X118.08 Y108.82 E9.80672
G1 X117.903 Y108.432 E9.82657
G1 X117.67 Y108.062 E9.84693
G1 X117.386 Y107.723 E9.86753
G1 X117.065 Y107.428 E9.88783
G1 X116.711 Y107.176 E9.90806
G1 X116.323 Y106.976 E9.92839
G1 X115.916 Y106.829 E9.94854
G1 X115.485 Y106.735 E9.96908
G1 X115.064 Y106.697 E9.98876
G1 X114.511 Y106.727 E10.01455
G1 X113.974 Y106.863 E10.04034
G1 X113.583 Y107.017 E10.05991
G1 X113.194 Y107.236 E10.0807
G1 X112.851 Y107.492 E10.10063
G1 X112.526 Y107.813 E10.1219
G1 X112.27 Y108.145 E10.14142
G1 X111.991 Y108.62 E10.16707
G1 X111.818 Y109.133 E10.19228
G1 X111.731 Y109.563 E10.21271
G1 X111.693 Y110.105 E10.23801
G1 X111.769 Y110.66 E10.26409
G1 X111.878 Y111.071 E10.28389
G1 X112.044 Y111.462 E10.30367
G1 X112.271 Y111.851 E10.32464
G1 X112.526 Y112.183 E10.34414
G1 X112.851 Y112.504 E10.36541
G1 X113.194 Y112.759 E10.38531
G1 X113.583 Y112.979 E10.40612
G1 X114.08 Y113.178 E10.43105
G1 X114.612 Y113.273 E10.45621
G1 X115.064 Y113.299 E10.47729
G1 F2700 E5.47729
G0 F10500 X115.046 Y112.599
G0 X115.138 Y111.704
G1 F2700 E10.47729
G1 F600 X114.641 Y111.669 E10.50049
G1 X114.241 Y111.521 E10.52035
G1 X113.948 Y111.337 E10.53646
G1 X113.706 Y111.106 E10.55204
G1 X113.511 Y110.821 E10.56812
G1 X113.374 Y110.492 E10.58471
G1 X113.309 Y110.18 E10.59955
G1 X113.311 Y109.732 E10.62042
G1 X113.441 Y109.32 E10.64053
G1 X113.597 Y109.036 E10.65562
G1 X113.815 Y108.777 E10.67138
G1 X114.079 Y108.566 E10.68712
G1 X114.39 Y108.409 E10.70334
G1 X114.808 Y108.3 E10.72346
G1 X115.218 Y108.312 E10.74256
G1 X115.56 Y108.391 E10.7589
G1 X115.852 Y108.529 E10.77394
G1 X116.144 Y108.74 E10.79071
G1 X116.358 Y108.979 E10.80565
G1 X116.538 Y109.28 E10.82198
G1 X116.652 Y109.592 E10.83745
G1 X116.7 Y109.944 E10.85399
G1 X116.678 Y110.313 E10.87121
G1 X116.539 Y110.716 E10.89106
G1 X116.369 Y111.007 E10.90675
G1 X116.14 Y111.26 E10.92264
G1 X115.877 Y111.455 E10.93788
G1 X115.557 Y111.604 E10.95432
G1 X115.138 Y111.704 E10.97438
;MESH:NONMESH
G0 F300 X115.138 Y111.704 Z1.12
G0 F10500 X115.052 Y112.493
;TIME_ELAPSED:30.297059
;LAYER:3
;note -- min layer time used
M106 S127.5
;TYPE:WALL-INNER
;MESH:Dystans.stl
G1 F591.1 X115.364 Y112.469 E10.98917
G1 F612.2 X115.697 Y112.406 E11.00463
G1 F610.7 X116.003 Y112.283 E11.01972
G1 F597 X116.294 Y112.136 E11.03498
G1 F600 X116.561 Y111.945 E11.05027
G1 F598.5 X116.806 Y111.72 E11.06579
G1 F609.1 X117.027 Y111.466 E11.08124
G1 F610.7 X117.199 Y111.183 E11.09639
G1 F600 X117.331 Y110.891 E11.11131
G1 F595.5 X117.429 Y110.566 E11.12723
G1 F597 X117.513 Y110.124 E11.14829
G1 X117.481 Y109.748 E11.16595
G1 F592.6 X117.43 Y109.428 E11.18122
G1 F588.2 X117.327 Y109.107 E11.19724
G1 F589.7 X117.198 Y108.813 E11.21245
G1 F594.1 X117.02 Y108.535 E11.22797
G1 F597 X116.789 Y108.257 E11.24489
G1 F603 X116.565 Y108.053 E11.25892
G1 F597 X116.293 Y107.863 E11.27445
G1 X116.004 Y107.71 E11.28975
G1 F595.5 X115.693 Y107.603 E11.30518
G1 F589.7 X115.361 Y107.528 E11.32131
G1 X115.051 Y107.503 E11.33604
G1 F585.4 X114.632 Y107.527 E11.35607
G1 X114.286 Y107.601 E11.37296
G1 F595.5 X113.927 Y107.741 E11.39104
G1 F597 X113.633 Y107.91 E11.40691
G1 F594.1 X113.375 Y108.101 E11.42201
G1 F598.5 X113.126 Y108.344 E11.43825
G1 F601.5 X112.933 Y108.592 E11.45284
G1 F598.5 X112.724 Y108.955 E11.4724
G1 F595.5 X112.593 Y109.34 E11.49147
G1 F607.6 X112.519 Y109.669 E11.50698
G1 F600 X112.502 Y110.079 E11.52609
G1 F588.2 X112.533 Y110.439 E11.54325
G1 F594.1 X112.638 Y110.812 E11.56147
G1 F592.6 X112.761 Y111.107 E11.57654
G1 F598.5 X112.933 Y111.403 E11.59252
G1 F597 X113.129 Y111.65 E11.60728
G1 X113.359 Y111.895 E11.62301
G1 X113.632 Y112.086 E11.6386
G1 F594.1 X113.956 Y112.269 E11.6561
G1 F592.6 X114.302 Y112.401 E11.67356
G1 F594.1 X114.705 Y112.477 E11.69284
G1 F592.6 X115.052 Y112.493 E11.70922
G0 F10500 X115.058 Y112.898
G1 F600 X115.424 Y112.865 E11.72633
G1 X115.805 Y112.782 E11.74449
G1 X116.163 Y112.652 E11.76222
G1 X116.502 Y112.478 E11.77997
G1 X116.813 Y112.256 E11.79776
G1 X117.096 Y111.997 E11.81562
G1 X117.345 Y111.697 E11.83378
G1 X117.551 Y111.373 E11.85166
G1 X117.705 Y111.033 E11.86904
G1 X117.822 Y110.658 E11.88733
G1 X117.898 Y110.193 E11.90927
G1 X117.882 Y109.71 E11.93177
G1 X117.822 Y109.337 E11.94936
G1 X117.706 Y108.963 E11.9676
G1 X117.551 Y108.622 E11.98504
G1 X117.346 Y108.298 E12.00289
G1 X117.096 Y108 E12.021
G1 X116.815 Y107.742 E12.03877
G1 X116.503 Y107.518 E12.05665
G1 X116.163 Y107.344 E12.07443
G1 X115.805 Y107.214 E12.09217
G1 X115.423 Y107.13 E12.11038
G1 X115.057 Y107.098 E12.12749
G1 X114.571 Y107.124 E12.15015
G1 X114.097 Y107.244 E12.17292
G1 X113.755 Y107.38 E12.19006
G1 X113.413 Y107.572 E12.20832
G1 X113.113 Y107.797 E12.22578
G1 X112.826 Y108.079 E12.24452
G1 X112.602 Y108.369 E12.26158
G1 X112.357 Y108.787 E12.28414
G1 X112.205 Y109.236 E12.30621
G1 X112.128 Y109.617 E12.32431
G1 X112.095 Y110.092 E12.34649
G1 X112.162 Y110.582 E12.36951
G1 X112.257 Y110.942 E12.38685
G1 X112.402 Y111.287 E12.40428
G1 X112.602 Y111.627 E12.42264
G1 X112.827 Y111.917 E12.43974
G1 X113.113 Y112.2 E12.45847
G1 X113.412 Y112.424 E12.47587
G1 X113.756 Y112.618 E12.49426
G1 X114.191 Y112.791 E12.51606
G1 X114.659 Y112.875 E12.5382
G1 X115.058 Y112.898 E12.55681
G0 F10500 X115.528 Y112.058
G1 F600 X114.869 Y112.095 E12.58754
G1 X114.444 Y112.026 E12.60759
G1 X114.054 Y111.878 E12.62701
G1 X113.617 Y111.6 E12.65113
G1 X113.264 Y111.182 E12.67661
G1 X113.062 Y110.817 E12.69603
G1 X112.913 Y110.332 E12.71966
G1 X112.909 Y109.688 E12.74964
G1 X113.061 Y109.173 E12.77465
G1 X113.329 Y108.713 E12.79944
G1 X113.712 Y108.339 E12.82436
G1 X114.087 Y108.106 E12.84492
G1 X114.46 Y107.97 E12.86341
G1 X114.871 Y107.9 E12.88282
G1 X115.417 Y107.94 E12.90831
G1 X115.89 Y108.091 E12.93143
G1 X116.241 Y108.302 E12.9505
G1 X116.577 Y108.611 E12.97176
G1 X116.818 Y108.938 E12.99067
G1 X117.029 Y109.448 E13.01637
G1 X117.125 Y110.102 E13.04715
G1 X116.989 Y110.665 E13.07412
G1 X116.773 Y111.164 E13.09944
G1 X116.388 Y111.578 E13.12577
G1 X116.04 Y111.822 E13.14556
G1 X115.528 Y112.058 E13.17181
G0 F10500 X114.892 Y111.696
;TYPE:WALL-OUTER
G1 F600 X114.533 Y111.632 E13.18879
G1 X114.248 Y111.524 E13.20298
G1 X113.867 Y111.279 E13.22407
G1 X113.605 Y110.971 E13.2429
G1 X113.431 Y110.662 E13.25942
G1 X113.309 Y110.252 E13.27933
G1 X113.311 Y109.732 E13.30355
G1 X113.426 Y109.347 E13.32226
G1 X113.645 Y108.957 E13.34308
G1 X113.952 Y108.659 E13.36301
G1 X114.247 Y108.472 E13.37927
G1 X114.538 Y108.364 E13.39372
G1 X114.893 Y108.3 E13.41052
G1 X115.331 Y108.332 E13.43097
G1 X115.713 Y108.453 E13.44963
G1 X116.009 Y108.628 E13.46564
G1 X116.255 Y108.851 E13.4811
G1 X116.462 Y109.128 E13.4972
G1 X116.636 Y109.54 E13.51803
G1 X116.72 Y110.078 E13.54338
G1 X116.599 Y110.57 E13.56698
G1 X116.434 Y110.935 E13.58563
G1 X116.144 Y111.256 E13.60577
G1 X115.87 Y111.458 E13.62162
G1 X115.454 Y111.655 E13.64305
G1 X114.892 Y111.696 E13.66929
G1 F2700 E8.66929
G0 F10500 X114.776 Y112.387
G0 X115.046 Y112.599
G0 X115.064 Y113.299
G1 F2700 E13.66929
G1 F600 X115.485 Y113.261 E13.68898
G1 X115.916 Y113.167 E13.70952
G1 X116.323 Y113.02 E13.72967
G1 X116.711 Y112.82 E13.74999
G1 X117.065 Y112.568 E13.77023
G1 X117.386 Y112.273 E13.79053
G1 X117.669 Y111.933 E13.81113
G1 X117.903 Y111.564 E13.83147
G1 X118.08 Y111.176 E13.85133
G1 X118.212 Y110.75 E13.8721
G1 X118.299 Y110.219 E13.89715
G1 X118.28 Y109.672 E13.92264
G1 X118.212 Y109.246 E13.94273
G1 X118.08 Y108.82 E13.96349
G1 X117.903 Y108.432 E13.98335
G1 X117.67 Y108.062 E14.00371
G1 X117.386 Y107.723 E14.0243
G1 X117.066 Y107.429 E14.04454
G1 X116.711 Y107.176 E14.06484
G1 X116.323 Y106.976 E14.08516
G1 X115.916 Y106.829 E14.10531
G1 X115.485 Y106.734 E14.12586
G1 X115.064 Y106.697 E14.14554
G1 X114.511 Y106.727 E14.17133
G1 X113.974 Y106.863 E14.19712
G1 X113.583 Y107.018 E14.21671
G1 X113.194 Y107.236 E14.23747
G1 X112.851 Y107.493 E14.25743
G1 X112.526 Y107.813 E14.27867
G1 X112.27 Y108.145 E14.29819
G1 X111.991 Y108.62 E14.32384
G1 X111.818 Y109.132 E14.34901
G1 X111.731 Y109.563 E14.36948
G1 X111.693 Y110.105 E14.39478
G1 X111.769 Y110.66 E14.42086
G1 X111.878 Y111.071 E14.44066
G1 X112.044 Y111.466 E14.46061
G1 X112.27 Y111.851 E14.4814
G1 X112.527 Y112.183 E14.50095
G1 X112.851 Y112.504 E14.52219
G1 X113.194 Y112.76 E14.54212
G1 X113.583 Y112.979 E14.56291
G1 X114.08 Y113.178 E14.58783
G1 X114.612 Y113.273 E14.613
G1 X115.064 Y113.299 E14.63408
G0 F10500 X115.066 Y112.688
;MESH:NONMESH
G0 F300 X115.066 Y112.688 Z1.4
G0 F10500 X115.194 Y112.11
;TIME_ELAPSED:39.054784
;LAYER:4
;note -- min layer time used
;TYPE:WALL-INNER
;MESH:Dystans.stl
G1 F600 X114.655 Y112.071 E14.65924
G1 X114.142 Y111.931 E14.684
G1 X113.716 Y111.661 E14.70749
G1 X113.398 Y111.362 E14.72781
G1 X113.166 Y111.024 E14.7469
G1 X112.995 Y110.633 E14.76678
G1 X112.913 Y110.23 E14.78593
G1 X112.909 Y109.806 E14.80567
G1 X112.999 Y109.358 E14.82695
G1 X113.206 Y108.876 E14.85137
G1 X113.537 Y108.489 E14.87509
G1 X113.901 Y108.208 E14.8965
G1 X114.346 Y107.988 E14.91961
G1 X114.875 Y107.9 E14.94458
G1 X115.308 Y107.92 E14.96477
G1 X115.709 Y108.018 E14.98399
G1 X116.085 Y108.194 E15.00332
G1 X116.422 Y108.453 E15.02311
G1 X116.709 Y108.77 E15.04302
G1 X116.914 Y109.134 E15.06248
G1 X117.048 Y109.521 E15.08155
G1 X117.1 Y109.946 E15.10148
G1 X117.049 Y110.468 E15.12591
G1 X116.915 Y110.862 E15.14528
G1 X116.703 Y111.232 E15.16514
G1 X116.418 Y111.552 E15.18509
G1 X116.048 Y111.818 E15.20631
G1 X115.705 Y111.976 E15.2239
G1 X115.194 Y112.11 E15.2485
G0 F10500 X115.053 Y112.499
G1 F607.6 X115.364 Y112.474 E15.26284
G1 F604.5 X115.694 Y112.396 E15.27851
G1 F595.5 X116.003 Y112.283 E15.29395
G1 F597 X116.295 Y112.136 E15.30925
G1 F603 X116.611 Y111.903 E15.32744
G1 F601.5 X116.806 Y111.72 E15.33986
G1 F603 X117.024 Y111.464 E15.35544
G1 F601.5 X117.197 Y111.182 E15.3708
G1 F595.5 X117.33 Y110.891 E15.38582
G1 F598.5 X117.432 Y110.566 E15.40172
G1 F589.7 X117.491 Y110.168 E15.42078
G1 F586.8 X117.482 Y109.748 E15.44078
G1 F600 X117.434 Y109.427 E15.45589
G1 F603 X117.331 Y109.105 E15.47156
G1 F595.5 X117.196 Y108.814 E15.48661
G1 F597 X117.023 Y108.533 E15.50205
G1 F598.5 X116.806 Y108.277 E15.51771
G1 F595.5 X116.56 Y108.052 E15.53335
G1 F598.5 X116.295 Y107.86 E15.54863
G1 X116.003 Y107.712 E15.56391
G1 F597 X115.694 Y107.6 E15.57929
G1 X115.364 Y107.527 E15.59511
G1 F594.1 X115.051 Y107.502 E15.60988
G1 F586.8 X114.632 Y107.527 E15.62986
G1 F598.5 X114.218 Y107.62 E15.64967
G1 F601.5 X113.928 Y107.744 E15.66432
G1 F594.1 X113.631 Y107.907 E15.68025
G1 F597 X113.375 Y108.101 E15.69528
G1 F592.6 X113.128 Y108.346 E15.71168
G1 F595.5 X112.89 Y108.641 E15.72947
G1 F592.6 X112.727 Y108.957 E15.74623
G1 F588.2 X112.599 Y109.297 E15.76349
G1 F597 X112.525 Y109.669 E15.78123
G1 F592.6 X112.502 Y110.079 E15.8006
G1 F586.8 X112.557 Y110.503 E15.82095
G1 F594.1 X112.637 Y110.812 E15.83596
G1 F598.5 X112.765 Y111.115 E15.85132
G1 F595.5 X112.933 Y111.397 E15.86672
G1 X113.126 Y111.651 E15.88168
G1 F598.5 X113.381 Y111.901 E15.89835
G1 F594.1 X113.632 Y112.086 E15.91302
G1 F601.5 X113.928 Y112.261 E15.92899
G1 F597 X114.302 Y112.399 E15.94764
G1 F588.2 X114.648 Y112.475 E15.96447
G1 F597 X115.053 Y112.499 E15.98346
G0 F10500 X115.058 Y112.898
G1 F600 X115.424 Y112.866 E16.00056
G1 X115.805 Y112.782 E16.01873
G1 X116.163 Y112.652 E16.03646
G1 X116.503 Y112.478 E16.05425
G1 X116.813 Y112.256 E16.072
G1 X117.096 Y111.997 E16.08987
G1 X117.345 Y111.698 E16.10799
G1 X117.551 Y111.373 E16.1259
G1 X117.705 Y111.034 E16.14324
G1 X117.822 Y110.658 E16.16158
G1 X117.898 Y110.193 E16.18352
G1 X117.882 Y109.71 E16.20602
G1 X117.822 Y109.337 E16.22361
G1 X117.705 Y108.963 E16.24186
G1 X117.551 Y108.622 E16.25928
G1 X117.346 Y108.298 E16.27713
G1 X117.097 Y107.999 E16.29525
G1 X116.813 Y107.74 E16.31315
G1 X116.503 Y107.518 E16.3309
G1 X116.163 Y107.344 E16.34869
G1 X115.805 Y107.214 E16.36642
G1 X115.424 Y107.131 E16.38458
G1 X115.057 Y107.098 E16.40174
G1 X114.571 Y107.124 E16.4244
G1 X114.097 Y107.244 E16.44717
G1 X113.755 Y107.379 E16.46429
G1 X113.413 Y107.572 E16.48258
G1 X113.113 Y107.796 E16.50001
G1 X112.826 Y108.079 E16.51878
G1 X112.603 Y108.37 E16.53585
G1 X112.357 Y108.788 E16.55843
G1 X112.205 Y109.232 E16.58029
G1 X112.129 Y109.616 E16.59851
G1 X112.095 Y110.092 E16.62073
G1 X112.162 Y110.582 E16.64376
G1 X112.257 Y110.941 E16.66106
G1 X112.407 Y111.294 E16.67891
G1 X112.599 Y111.623 E16.69665
G1 X112.826 Y111.917 E16.71395
G1 X113.113 Y112.199 E16.73268
G1 X113.412 Y112.424 E16.75011
G1 X113.757 Y112.618 E16.76854
G1 X114.19 Y112.791 E16.79025
G1 X114.659 Y112.875 E16.81244
G1 X115.058 Y112.898 E16.83105
G0 F10500 X115.064 Y113.299
;TYPE:WALL-OUTER
G1 F600 X115.485 Y113.262 E16.85073
G1 X115.916 Y113.167 E16.87128
G1 X116.323 Y113.02 E16.89143
G1 X116.711 Y112.82 E16.91175
G1 X117.065 Y112.568 E16.93199
G1 X117.386 Y112.273 E16.95229
G1 X117.669 Y111.934 E16.97285
G1 X117.903 Y111.564 E16.99323
G1 X118.08 Y111.176 E17.01309
G1 X118.212 Y110.75 E17.03386
G1 X118.299 Y110.219 E17.05891
G1 X118.28 Y109.672 E17.0844
G1 X118.212 Y109.246 E17.10449
G1 X118.08 Y108.82 E17.12525
G1 X117.903 Y108.432 E17.14511
G1 X117.67 Y108.062 E17.16547
G1 X117.387 Y107.723 E17.18604
G1 X117.065 Y107.428 E17.20637
G1 X116.711 Y107.176 E17.2266
G1 X116.323 Y106.976 E17.24693
G1 X115.916 Y106.829 E17.26708
G1 X115.485 Y106.735 E17.28762
G1 X115.064 Y106.697 E17.3073
G1 X114.511 Y106.727 E17.33309
G1 X113.974 Y106.863 E17.35889
G1 X113.583 Y107.017 E17.37845
G1 X113.194 Y107.236 E17.39924
G1 X112.851 Y107.492 E17.41917
G1 X112.526 Y107.813 E17.44044
G1 X112.271 Y108.145 E17.45993
G1 X111.991 Y108.62 E17.48561
G1 X111.818 Y109.128 E17.5106
G1 X111.731 Y109.563 E17.53125
G1 X111.693 Y110.105 E17.55655
G1 X111.769 Y110.66 E17.58264
G1 X111.878 Y111.071 E17.60244
G1 X112.048 Y111.474 E17.6228
G1 X112.267 Y111.847 E17.64294
G1 X112.526 Y112.183 E17.6627
G1 X112.851 Y112.503 E17.68394
G1 X113.194 Y112.76 E17.70389
G1 X113.583 Y112.979 E17.72468
G1 X114.08 Y113.178 E17.74961
G1 X114.612 Y113.273 E17.77477
G1 X115.064 Y113.299 E17.79586
G1 F2700 E12.79586
G0 F10500 X115.046 Y112.599
G0 X115.154 Y111.704
G1 F2700 E17.79586
G1 F600 X114.747 Y111.68 E17.81484
G1 X114.317 Y111.566 E17.83555
G1 X113.968 Y111.35 E17.85467
G1 X113.691 Y111.083 E17.87258
G1 X113.511 Y110.822 E17.88734
G1 X113.374 Y110.496 E17.90381
G1 X113.309 Y110.176 E17.91901
G1 X113.308 Y109.834 E17.93494
G1 X113.372 Y109.508 E17.95041
G1 X113.539 Y109.106 E17.97068
G1 X113.819 Y108.773 E17.99094
G1 X114.097 Y108.557 E18.00733
G1 X114.458 Y108.377 E18.02611
G1 X114.874 Y108.302 E18.0458
G1 X115.258 Y108.32 E18.0637
G1 X115.573 Y108.395 E18.07877
G1 X115.889 Y108.548 E18.09512
G1 X116.152 Y108.748 E18.11051
G1 X116.37 Y108.991 E18.12571
G1 X116.55 Y109.3 E18.14236
G1 X116.659 Y109.616 E18.15793
G1 X116.7 Y109.96 E18.17406
G1 X116.652 Y110.392 E18.1943
G1 X116.551 Y110.696 E18.20921
G1 X116.379 Y110.998 E18.2254
G1 X116.148 Y111.252 E18.24138
G1 X115.877 Y111.455 E18.25715
G1 X115.569 Y111.6 E18.273
G1 X115.154 Y111.704 E18.29292
;MESH:NONMESH
G0 F300 X115.154 Y111.704 Z1.68
G0 F10500 X115.075 Y112.103
;TIME_ELAPSED:47.674196
;LAYER:5
;note -- min layer time used
;TYPE:WALL-INNER
;MESH:Dystans.stl
G1 F600 X114.541 Y112.064 E18.31785
G1 X114.038 Y111.864 E18.34306
G1 X113.617 Y111.594 E18.36635
G1 X113.265 Y111.18 E18.39165
G1 X113.015 Y110.742 E18.41514
G1 X112.913 Y110.234 E18.43926
G1 X112.909 Y109.686 E18.46478
G1 X113.102 Y109.071 E18.49479
G1 X113.421 Y108.614 E18.52075
G1 X113.712 Y108.339 E18.53939
G1 X114.149 Y108.06 E18.56353
G1 X114.763 Y107.894 E18.59315
G1 X115.395 Y107.924 E18.62261
G1 X116.02 Y108.147 E18.65351
G1 X116.426 Y108.457 E18.6773
G1 X116.704 Y108.768 E18.69672
G1 X116.917 Y109.141 E18.71672
G1 X117.052 Y109.536 E18.73616
G1 X117.1 Y109.95 E18.75556
G1 X117.055 Y110.456 E18.77922
G1 X116.879 Y110.97 E18.80452
G1 X116.59 Y111.373 E18.82761
G1 X116.265 Y111.677 E18.84833
G1 X115.923 Y111.886 E18.86699
G1 X115.489 Y112.042 E18.88847
G1 X115.075 Y112.103 E18.90795
G0 F10500 X115.053 Y112.499
G1 F598.5 X115.364 Y112.468 E18.92254
G1 F597 X115.699 Y112.396 E18.93858
G1 F601.5 X116.004 Y112.286 E18.95364
G1 F597 X116.293 Y112.133 E18.96894
G1 X116.574 Y111.935 E18.98503
G1 F601.5 X116.807 Y111.721 E18.99972
G1 F598.5 X117.021 Y111.461 E19.01544
G1 F609.1 X117.185 Y111.216 E19.02896
G1 F610.7 X117.331 Y110.891 E19.04526
G1 F601.5 X117.433 Y110.567 E19.06104
G1 F591.1 X117.491 Y110.168 E19.0801
G1 F586.8 X117.482 Y109.748 E19.1001
G1 F598.5 X117.433 Y109.428 E19.11521
G1 F597 X117.329 Y109.106 E19.13105
G1 F589.7 X117.195 Y108.815 E19.14622
G1 F597 X117.024 Y108.533 E19.16166
G1 F601.5 X116.806 Y108.276 E19.17731
G1 F597 X116.56 Y108.052 E19.19288
G1 F601.5 X116.295 Y107.859 E19.20811
G1 X116.003 Y107.712 E19.22329
G1 F597 X115.693 Y107.6 E19.23872
G1 F601.5 X115.364 Y107.525 E19.25439
G1 F598.5 X115.051 Y107.502 E19.26904
G1 F594.1 X114.675 Y107.508 E19.28673
G1 F600 X114.22 Y107.626 E19.30861
G1 F607.6 X113.925 Y107.737 E19.32311
G1 F603 X113.633 Y107.91 E19.33883
G1 F594.1 X113.375 Y108.101 E19.35393
G1 F598.5 X113.127 Y108.344 E19.37014
G1 F594.1 X112.937 Y108.595 E19.38494
G1 F591.1 X112.735 Y108.916 E19.40287
G1 F594.1 X112.593 Y109.341 E19.42394
G1 F606.1 X112.519 Y109.669 E19.43944
G1 F600 X112.502 Y110.079 E19.45855
G1 F586.8 X112.556 Y110.503 E19.4789
G1 F606.1 X112.631 Y110.814 E19.49365
G1 F607.6 X112.766 Y111.115 E19.50882
G1 F597 X112.93 Y111.398 E19.52412
G1 F594.1 X113.129 Y111.649 E19.53919
G1 F598.5 X113.371 Y111.899 E19.55543
G1 X113.633 Y112.085 E19.57043
G1 F592.6 X113.959 Y112.269 E19.58808
G1 F594.1 X114.301 Y112.402 E19.60533
G1 F603 X114.591 Y112.471 E19.61915
G1 F609.1 X115.053 Y112.499 E19.64037
G0 F10500 X115.058 Y112.898
G1 F600 X115.424 Y112.865 E19.65749
G1 X115.805 Y112.782 E19.67564
G1 X116.163 Y112.652 E19.69338
G1 X116.503 Y112.478 E19.71116
G1 X116.813 Y112.256 E19.72892
G1 X117.097 Y111.997 E19.74682
G1 X117.345 Y111.697 E19.76494
G1 X117.551 Y111.373 E19.78282
G1 X117.705 Y111.033 E19.8002
G1 X117.822 Y110.658 E19.81849
G1 X117.898 Y110.193 E19.84043
G1 X117.882 Y109.71 E19.86293
G1 X117.822 Y109.337 E19.88052
G1 X117.706 Y108.963 E19.89876
G1 X117.551 Y108.623 E19.91616
G1 X117.346 Y108.299 E19.93401
G1 X117.096 Y107.999 E19.95219
G1 X116.813 Y107.74 E19.97006
G1 X116.502 Y107.519 E19.98782
G1 X116.163 Y107.344 E20.00559
G1 X115.804 Y107.214 E20.02337
G1 X115.424 Y107.131 E20.04148
G1 X115.057 Y107.098 E20.05863
G1 X114.571 Y107.124 E20.0813
G1 X114.097 Y107.245 E20.10408
G1 X113.755 Y107.38 E20.1212
G1 X113.413 Y107.572 E20.13946
G1 X113.113 Y107.797 E20.15692
G1 X112.827 Y108.079 E20.17562
G1 X112.602 Y108.369 E20.19272
G1 X112.357 Y108.787 E20.21528
G1 X112.205 Y109.237 E20.23739
G1 X112.128 Y109.617 E20.25545
G1 X112.095 Y110.092 E20.27762
G1 X112.161 Y110.582 E20.30064
G1 X112.258 Y110.941 E20.31796
G1 X112.406 Y111.295 E20.33582
G1 X112.598 Y111.622 E20.35348
G1 X112.826 Y111.917 E20.37084
G1 X113.112 Y112.2 E20.38958
G1 X113.413 Y112.424 E20.40705
G1 X113.757 Y112.617 E20.42541
G1 X114.19 Y112.791 E20.44714
G1 X114.659 Y112.874 E20.46932
G1 X115.058 Y112.898 E20.48793
G0 F10500 X115.064 Y113.299
;TYPE:WALL-OUTER
G1 F600 X115.485 Y113.261 E20.50762
G1 X115.916 Y113.167 E20.52816
G1 X116.323 Y113.02 E20.54831
G1 X116.711 Y112.82 E20.56863
G1 X117.065 Y112.568 E20.58887
G1 X117.387 Y112.273 E20.6092
G1 X117.669 Y111.933 E20.62977
G1 X117.903 Y111.564 E20.65012
G1 X118.08 Y111.176 E20.66998
G1 X118.212 Y110.75 E20.69074
G1 X118.299 Y110.219 E20.7158
G1 X118.28 Y109.672 E20.74128
G1 X118.212 Y109.246 E20.76137
G1 X118.08 Y108.82 E20.78214
G1 X117.903 Y108.432 E20.802
G1 X117.67 Y108.063 E20.82232
G1 X117.386 Y107.723 E20.84294
G1 X117.065 Y107.428 E20.86325
G1 X116.711 Y107.176 E20.88348
G1 X116.323 Y106.976 E20.9038
G1 X115.916 Y106.829 E20.92395
G1 X115.485 Y106.735 E20.9445
G1 X115.064 Y106.697 E20.96418
G1 X114.511 Y106.727 E20.98997
G1 X113.974 Y106.863 E21.01576
G1 X113.583 Y107.018 E21.03535
G1 X113.194 Y107.236 E21.05611
G1 X112.851 Y107.493 E21.07607
G1 X112.527 Y107.813 E21.09727
G1 X112.27 Y108.145 E21.11682
G1 X111.991 Y108.62 E21.14247
G1 X111.818 Y109.133 E21.16768
G1 X111.731 Y109.563 E21.18811
G1 X111.693 Y110.105 E21.21341
G1 X111.769 Y110.66 E21.23949
G1 X111.878 Y111.071 E21.25929
G1 X112.048 Y111.474 E21.27966
G1 X112.266 Y111.847 E21.29978
G1 X112.526 Y112.183 E21.31956
G1 X112.851 Y112.504 E21.34083
G1 X113.194 Y112.76 E21.36076
G1 X113.583 Y112.979 E21.38155
G1 X114.08 Y113.178 E21.40648
G1 X114.612 Y113.272 E21.43163
G1 X115.064 Y113.299 E21.45272
G1 F2700 E16.45272
G0 F10500 X115.046 Y112.599
G0 X115.075 Y111.7
G1 F2700 E21.45272
G1 F600 X114.653 Y111.673 E21.47241
G1 X114.251 Y111.524 E21.49237
G1 X113.871 Y111.279 E21.51342
G1 X113.6 Y110.962 E21.53284
G1 X113.388 Y110.58 E21.55319
G1 X113.309 Y110.18 E21.57217
G1 X113.311 Y109.732 E21.59303
G1 X113.459 Y109.262 E21.61598
G1 X113.705 Y108.897 E21.63647
G1 X113.952 Y108.659 E21.65244
G1 X114.318 Y108.43 E21.67255
G1 X114.825 Y108.296 E21.69697
G1 X115.333 Y108.321 E21.72065
G1 X115.808 Y108.493 E21.74417
G1 X116.141 Y108.739 E21.76345
G1 X116.382 Y109.005 E21.78017
G1 X116.544 Y109.295 E21.79563
G1 X116.656 Y109.612 E21.81129
G1 X116.7 Y109.964 E21.82781
G1 X116.662 Y110.357 E21.84619
G1 X116.527 Y110.768 E21.86634
G1 X116.282 Y111.117 E21.88619
G1 X116.033 Y111.347 E21.90197
G1 X115.74 Y111.53 E21.91806
G1 X115.403 Y111.652 E21.93475
G1 X115.075 Y111.7 E21.95018
;MESH:NONMESH
G0 F300 X115.075 Y111.7 Z1.96
G0 F10500 X115.209 Y112.109
;TIME_ELAPSED:56.290466
;LAYER:6
;note -- min layer time used
;TYPE:WALL-INNER
;MESH:Dystans.stl
G1 F600 X114.54 Y112.064 E21.98141
G1 X114.037 Y111.867 E22.00656
G1 X113.72 Y111.665 E22.02406
G1 X113.402 Y111.37 E22.04426
G1 X113.09 Y110.917 E22.06987
G1 X112.944 Y110.422 E22.0939
G1 X112.887 Y109.91 E22.11789
G1 X112.999 Y109.356 E22.14421
G1 X113.17 Y108.972 E22.16378
G1 X113.384 Y108.657 E22.18152
G1 X113.72 Y108.331 E22.20332
G1 X114.074 Y108.108 E22.2228
G1 X114.463 Y107.964 E22.24211
G1 X114.883 Y107.9 E22.2619
G1 X115.307 Y107.921 E22.28166
G1 X115.716 Y108.022 E22.30128
G1 X116.084 Y108.2 E22.32031
G1 X116.517 Y108.522 E22.34544
G1 X116.812 Y108.934 E22.36904
G1 X117.003 Y109.362 E22.39086
G1 X117.111 Y109.86 E22.41459
G1 X117.057 Y110.413 E22.44046
G1 X116.919 Y110.854 E22.46198
G1 X116.732 Y111.186 E22.47972
G1 X116.431 Y111.539 E22.50132
G1 X116.161 Y111.745 E22.51714
G1 X115.712 Y111.977 E22.54067
G1 X115.209 Y112.109 E22.56488
G0 F10500 X115.053 Y112.499
G1 F609.1 X115.365 Y112.475 E22.57924
G1 F607.6 X115.694 Y112.397 E22.59478
G1 F598.5 X116.003 Y112.284 E22.61014
G1 F594.1 X116.293 Y112.134 E22.6255
G1 F595.5 X116.561 Y111.945 E22.64088
G1 F598.5 X116.806 Y111.72 E22.65641
G1 F601.5 X117.023 Y111.463 E22.67203
G1 F600 X117.196 Y111.182 E22.6874
G1 F597 X117.331 Y110.891 E22.70241
G1 F600 X117.432 Y110.566 E22.71826
G1 F591.1 X117.492 Y110.168 E22.73728
G1 X117.499 Y109.804 E22.75449
G1 F594.1 X117.429 Y109.428 E22.77247
G1 F595.5 X117.331 Y109.105 E22.78831
G1 F600 X117.199 Y108.813 E22.80323
G1 F598.5 X117.021 Y108.535 E22.81864
G1 F609.1 X116.811 Y108.271 E22.83411
G1 X116.56 Y108.052 E22.84939
G1 F600 X116.266 Y107.845 E22.86613
G1 F598.5 X116.003 Y107.713 E22.87987
G1 F594.1 X115.693 Y107.601 E22.89537
G1 F598.5 X115.364 Y107.526 E22.91112
G1 F597 X115.051 Y107.502 E22.92581
G1 F586.8 X114.632 Y107.527 E22.9458
G1 F585.4 X114.296 Y107.598 E22.96219
G1 F594.1 X113.926 Y107.74 E22.98083
G1 F595.5 X113.632 Y107.91 E22.99676
G1 F594.1 X113.375 Y108.101 E23.01182
G1 F597 X113.126 Y108.344 E23.0281
G1 F592.6 X112.937 Y108.595 E23.04292
G1 F585.4 X112.729 Y108.957 E23.06284
G1 F588.2 X112.6 Y109.295 E23.08002
G1 F601.5 X112.504 Y109.768 E23.10244
G1 F600 X112.5 Y110.079 E23.11693
G1 F594.1 X112.553 Y110.502 E23.13697
G1 F595.5 X112.638 Y110.808 E23.15187
G1 F606.1 X112.758 Y111.12 E23.16728
G1 F607.6 X112.931 Y111.398 E23.18234
G1 F600 X113.125 Y111.652 E23.19722
G1 F601.5 X113.375 Y111.895 E23.21342
G1 F595.5 X113.632 Y112.087 E23.22847
G1 F597 X113.96 Y112.272 E23.24609
G1 X114.301 Y112.403 E23.26318
G1 F598.5 X114.705 Y112.478 E23.28236
G1 F603 X115.053 Y112.499 E23.29852
G0 F10500 X115.058 Y112.898
G1 F600 X115.424 Y112.866 E23.31562
G1 X115.805 Y112.782 E23.33379
G1 X116.163 Y112.652 E23.35153
G1 X116.503 Y112.478 E23.36931
G1 X116.813 Y112.256 E23.38707
G1 X117.096 Y111.997 E23.40493
G1 X117.345 Y111.697 E23.42308
G1 X117.55 Y111.373 E23.44094
G1 X117.705 Y111.033 E23.45834
G1 X117.822 Y110.658 E23.47663
G1 X117.898 Y110.193 E23.49857
G1 X117.882 Y109.71 E23.52107
G1 X117.822 Y109.337 E23.53866
G1 X117.705 Y108.963 E23.55691
G1 X117.551 Y108.623 E23.57429
G1 X117.345 Y108.299 E23.59217
G1 X117.096 Y108 E23.61028
G1 X116.813 Y107.74 E23.62818
G1 X116.503 Y107.518 E23.64593
G1 X116.163 Y107.344 E23.66372
G1 X115.804 Y107.214 E23.6815
G1 X115.424 Y107.131 E23.69961
G1 X115.057 Y107.098 E23.71677
G1 X114.571 Y107.124 E23.73943
G1 X114.097 Y107.244 E23.7622
G1 X113.754 Y107.379 E23.77936
G1 X113.412 Y107.572 E23.79765
G1 X113.113 Y107.797 E23.81507
G1 X112.826 Y108.079 E23.83381
G1 X112.602 Y108.369 E23.85087
G1 X112.358 Y108.788 E23.87345
G1 X112.205 Y109.237 E23.89554
G1 X112.128 Y109.617 E23.91359
G1 X112.095 Y110.092 E23.93576
G1 X112.161 Y110.581 E23.95874
G1 X112.257 Y110.938 E23.97595
G1 X112.406 Y111.295 E23.99396
G1 X112.598 Y111.623 E24.01166
G1 X112.827 Y111.916 E24.02898
G1 X113.113 Y112.199 E24.04771
G1 X113.413 Y112.424 E24.06517
G1 X113.757 Y112.618 E24.08356
G1 X114.19 Y112.791 E24.10528
G1 X114.659 Y112.875 E24.12746
G1 X115.058 Y112.898 E24.14607
G0 F10500 X115.064 Y113.299
;TYPE:WALL-OUTER
G1 F600 X115.485 Y113.262 E24.16575
G1 X115.916 Y113.167 E24.1863
G1 X116.323 Y113.02 E24.20645
G1 X116.711 Y112.82 E24.22678
G1 X117.065 Y112.568 E24.24701
G1 X117.386 Y112.273 E24.26731
G1 X117.669 Y111.933 E24.28791
G1 X117.903 Y111.564 E24.30826
G1 X118.08 Y111.176 E24.32811
G1 X118.212 Y110.75 E24.34888
G1 X118.299 Y110.219 E24.37394
G1 X118.28 Y109.672 E24.39942
G1 X118.212 Y109.246 E24.41951
G1 X118.08 Y108.82 E24.44028
G1 X117.903 Y108.432 E24.46013
G1 X117.669 Y108.063 E24.48048
G1 X117.386 Y107.723 E24.50108
G1 X117.065 Y107.428 E24.52138
G1 X116.711 Y107.176 E24.54161
G1 X116.323 Y106.976 E24.56194
G1 X115.916 Y106.829 E24.58209
G1 X115.485 Y106.735 E24.60263
G1 X115.064 Y106.697 E24.62231
G1 X114.511 Y106.727 E24.6481
G1 X113.974 Y106.863 E24.67389
G1 X113.582 Y107.017 E24.69351
G1 X113.194 Y107.236 E24.71425
G1 X112.851 Y107.493 E24.73421
G1 X112.526 Y107.813 E24.75545
G1 X112.27 Y108.145 E24.77497
G1 X111.992 Y108.62 E24.8006
G1 X111.818 Y109.133 E24.82582
G1 X111.731 Y109.563 E24.84625
G1 X111.693 Y110.105 E24.87155
G1 X111.769 Y110.66 E24.89763
G1 X111.878 Y111.067 E24.91725
G1 X112.048 Y111.474 E24.93779
G1 X112.266 Y111.847 E24.95791
G1 X112.527 Y112.182 E24.97768
G1 X112.851 Y112.503 E24.99892
G1 X113.194 Y112.76 E25.01888
G1 X113.583 Y112.979 E25.03966
G1 X114.08 Y113.178 E25.06459
G1 X114.612 Y113.273 E25.08976
G1 X115.064 Y113.299 E25.11084
G1 F2700 E20.11084
G0 F10500 X115.046 Y112.599
G0 X115.17 Y111.704
G1 F2700 E25.11084
G1 F600 X114.649 Y111.673 E25.13514
G1 X114.233 Y111.519 E25.1558
G1 X113.96 Y111.345 E25.17087
G1 X113.709 Y111.109 E25.18691
G1 X113.471 Y110.774 E25.20605
G1 X113.333 Y110.328 E25.22779
G1 X113.292 Y109.91 E25.24735
G1 X113.378 Y109.484 E25.26758
G1 X113.504 Y109.195 E25.28226
G1 X113.701 Y108.901 E25.29874
G1 X113.96 Y108.651 E25.3155
G1 X114.237 Y108.477 E25.33073
G1 X114.584 Y108.35 E25.34794
G1 X114.905 Y108.3 E25.36307
G1 X115.249 Y108.317 E25.37911
G1 X115.58 Y108.399 E25.39498
G1 X115.931 Y108.577 E25.41331
G1 X116.242 Y108.823 E25.43177
G1 X116.474 Y109.148 E25.45037
G1 X116.62 Y109.48 E25.46726
G1 X116.711 Y109.896 E25.48708
G1 X116.662 Y110.349 E25.5083
G1 X116.555 Y110.688 E25.52485
G1 X116.385 Y110.985 E25.54079
G1 X116.16 Y111.244 E25.55676
G1 X115.929 Y111.419 E25.57026
G1 X115.576 Y111.601 E25.58875
G1 X115.17 Y111.704 E25.60826
;MESH:NONMESH
G0 F300 X115.17 Y111.704 Z2.24
G0 F10500 X114.882 Y112.099
;TIME_ELAPSED:64.913991
;LAYER:7
;note -- min layer time used
;TYPE:WALL-INNER
;MESH:Dystans.stl
G1 F600 X114.463 Y112.03 E25.62803
G1 X114.061 Y111.882 E25.64798
G1 X113.63 Y111.602 E25.67191
G1 X113.215 Y111.137 E25.70093
G1 X113.009 Y110.674 E25.72453
G1 X112.913 Y110.246 E25.74495
G1 X112.909 Y109.802 E25.76563
G1 X112.999 Y109.359 E25.78668
G1 X113.17 Y108.963 E25.80676
G1 X113.421 Y108.61 E25.82693
G1 X113.72 Y108.331 E25.84597
G1 X114.15 Y108.061 E25.86962
G1 X114.769 Y107.894 E25.89947
G1 X115.309 Y107.921 E25.92465
G1 X115.839 Y108.055 E25.9501
G1 X116.273 Y108.326 E25.97393
G1 X116.597 Y108.635 E25.99477
G1 X116.838 Y108.975 E26.01418
G1 X117.002 Y109.366 E26.03392
G1 X117.093 Y109.778 E26.05357
G1 X117.086 Y110.253 E26.07569
G1 X117.002 Y110.63 E26.09368
G1 X116.836 Y111.026 E26.11367
G1 X116.594 Y111.364 E26.13303
G1 X116.2 Y111.737 E26.15829
G1 X115.733 Y111.968 E26.18255
G1 X115.315 Y112.076 E26.20265
G1 X114.882 Y112.099 E26.22284
G0 F10500 X115.053 Y112.494
G1 F595.5 X115.364 Y112.471 E26.23747
G1 F600 X115.694 Y112.396 E26.25323
G1 F597 X116.003 Y112.285 E26.2686
G1 F598.5 X116.294 Y112.136 E26.28386
G1 F603 X116.56 Y111.95 E26.2989
G1 F601.5 X116.806 Y111.72 E26.31454
G1 F595.5 X117.02 Y111.461 E26.3303
G1 F597 X117.199 Y111.183 E26.34577
G1 F598.5 X117.33 Y110.89 E26.36076
G1 F594.1 X117.429 Y110.566 E26.37669
G1 F591.1 X117.496 Y110.216 E26.39353
G1 F597 X117.485 Y109.748 E26.41544
G1 X117.429 Y109.428 E26.43064
G1 F592.6 X117.33 Y109.106 E26.44652
G1 F597 X117.199 Y108.813 E26.46154
G1 F595.5 X117.02 Y108.535 E26.47705
G1 F594.1 X116.806 Y108.276 E26.49285
G1 F601.5 X116.563 Y108.049 E26.5083
G1 F598.5 X116.293 Y107.863 E26.5236
G1 F606.1 X116.006 Y107.705 E26.53871
G1 F607.6 X115.693 Y107.601 E26.55387
G1 F598.5 X115.364 Y107.526 E26.56963
G1 F597 X115.051 Y107.502 E26.58432
G1 F594.1 X114.679 Y107.508 E26.60181
G1 F600 X114.219 Y107.626 E26.62393
G1 F604.5 X113.91 Y107.744 E26.63921
G1 F600 X113.632 Y107.91 E26.65429
G1 F594.1 X113.375 Y108.101 E26.66935
G1 F601.5 X113.126 Y108.344 E26.68551
G1 F600 X112.936 Y108.595 E26.70017
G1 F588.2 X112.728 Y108.956 E26.71996
G1 F591.1 X112.591 Y109.34 E26.73923
G1 F601.5 X112.524 Y109.67 E26.75487
G1 F592.6 X112.502 Y110.079 E26.77418
G1 F588.2 X112.556 Y110.503 E26.79448
G1 F598.5 X112.636 Y110.812 E26.80938
G1 F600 X112.765 Y111.115 E26.82471
G1 F606.1 X112.925 Y111.402 E26.83986
G1 F603 X113.128 Y111.649 E26.85467
G1 F601.5 X113.371 Y111.9 E26.8709
G1 X113.632 Y112.086 E26.88578
G1 F595.5 X113.929 Y112.257 E26.90186
G1 F592.6 X114.302 Y112.401 E26.92071
G1 F591.1 X114.705 Y112.476 E26.94009
G1 F592.6 X115.053 Y112.494 E26.95652
G0 F10500 X115.059 Y112.898
G1 F600 X115.424 Y112.866 E26.97358
G1 X115.805 Y112.782 E26.99174
G1 X116.163 Y112.653 E27.00946
G1 X116.502 Y112.478 E27.02723
G1 X116.812 Y112.258 E27.04493
G1 X117.096 Y111.997 E27.06289
G1 X117.345 Y111.698 E27.08101
G1 X117.551 Y111.373 E27.09892
G1 X117.705 Y111.033 E27.1163
G1 X117.822 Y110.658 E27.1346
G1 X117.898 Y110.193 E27.15654
G1 X117.882 Y109.71 E27.17904
G1 X117.822 Y109.337 E27.19663
G1 X117.706 Y108.963 E27.21486
G1 X117.551 Y108.623 E27.23226
G1 X117.346 Y108.298 E27.25016
G1 X117.096 Y107.999 E27.2683
G1 X116.832 Y107.756 E27.28501
G1 X116.503 Y107.518 E27.30392
G1 X116.163 Y107.344 E27.3217
G1 X115.804 Y107.214 E27.33948
G1 X115.424 Y107.131 E27.35759
G1 X115.057 Y107.098 E27.37475
G1 X114.571 Y107.125 E27.39742
G1 X114.097 Y107.245 E27.42018
G1 X113.755 Y107.379 E27.43729
G1 X113.412 Y107.572 E27.45561
G1 X113.113 Y107.797 E27.47304
G1 X112.827 Y108.08 E27.49177
G1 X112.603 Y108.37 E27.50884
G1 X112.357 Y108.787 E27.53138
G1 X112.205 Y109.236 E27.55345
G1 X112.128 Y109.617 E27.57155
G1 X112.095 Y110.092 E27.59373
G1 X112.162 Y110.582 E27.61675
G1 X112.258 Y110.941 E27.63406
G1 X112.406 Y111.294 E27.65188
G1 X112.598 Y111.623 E27.66962
G1 X112.826 Y111.916 E27.68691
G1 X113.113 Y112.2 E27.70571
G1 X113.412 Y112.424 E27.7231
G1 X113.756 Y112.618 E27.74149
G1 X114.19 Y112.792 E27.76327
G1 X114.659 Y112.874 E27.78544
G1 X115.059 Y112.898 E27.80409
G0 F10500 X115.065 Y113.299
;TYPE:WALL-OUTER
G1 F600 X115.485 Y113.262 E27.82373
G1 X115.916 Y113.167 E27.84428
G1 X116.323 Y113.02 E27.86443
G1 X116.711 Y112.82 E27.88475
G1 X117.065 Y112.568 E27.90499
G1 X117.386 Y112.273 E27.92529
G1 X117.669 Y111.934 E27.94585
G1 X117.903 Y111.564 E27.96624
G1 X118.08 Y111.176 E27.98609
G1 X118.212 Y110.75 E28.00686
G1 X118.299 Y110.219 E28.03192
G1 X118.28 Y109.672 E28.0574
G1 X118.212 Y109.246 E28.07749
G1 X118.08 Y108.82 E28.09826
G1 X117.903 Y108.432 E28.11811
G1 X117.67 Y108.062 E28.13847
G1 X117.386 Y107.723 E28.15907
G1 X117.065 Y107.428 E28.17937
G1 X116.711 Y107.176 E28.1996
G1 X116.323 Y106.976 E28.21993
G1 X115.916 Y106.829 E28.24008
G1 X115.485 Y106.735 E28.26062
G1 X115.064 Y106.697 E28.2803
G1 X114.511 Y106.727 E28.30609
G1 X113.974 Y106.863 E28.33188
G1 X113.583 Y107.017 E28.35145
G1 X113.194 Y107.236 E28.37224
G1 X112.851 Y107.493 E28.3922
G1 X112.527 Y107.814 E28.41343
G1 X112.271 Y108.145 E28.43292
G1 X111.991 Y108.62 E28.45859
G1 X111.818 Y109.132 E28.48376
G1 X111.731 Y109.563 E28.50423
G1 X111.693 Y110.105 E28.52953
G1 X111.769 Y110.66 E28.55562
G1 X111.878 Y111.071 E28.57541
G1 X112.048 Y111.474 E28.59578
G1 X112.266 Y111.847 E28.6159
G1 X112.526 Y112.182 E28.63564
G1 X112.851 Y112.504 E28.65695
G1 X113.194 Y112.76 E28.67688
G1 X113.583 Y112.979 E28.69766
G1 X114.08 Y113.178 E28.72259
G1 X114.612 Y113.272 E28.74775
G1 X115.065 Y113.299 E28.76888
G1 F2700 E23.76888
G0 F10500 X115.046 Y112.599
G0 X114.795 Y112.388
G0 X114.904 Y111.696
G1 F2700 E28.76888
G1 F600 X114.585 Y111.645 E28.78392
G1 X114.254 Y111.527 E28.80029
G1 X113.883 Y111.291 E28.82076
G1 X113.56 Y110.925 E28.84349
G1 X113.384 Y110.534 E28.86346
G1 X113.309 Y110.192 E28.87976
G1 X113.308 Y109.83 E28.89662
G1 X113.383 Y109.474 E28.91356
G1 X113.515 Y109.166 E28.92916
G1 X113.709 Y108.889 E28.94491
G1 X113.96 Y108.651 E28.96101
G1 X114.322 Y108.424 E28.98091
G1 X114.829 Y108.296 E29.00526
G1 X115.253 Y108.317 E29.02503
G1 X115.692 Y108.433 E29.04617
G1 X116.041 Y108.652 E29.06535
G1 X116.3 Y108.904 E29.08218
G1 X116.472 Y109.148 E29.09608
G1 X116.62 Y109.484 E29.11318
G1 X116.69 Y109.808 E29.12861
G1 X116.69 Y110.189 E29.14635
G1 X116.62 Y110.512 E29.16174
G1 X116.478 Y110.84 E29.17839
G1 X116.271 Y111.125 E29.19479
G1 X115.989 Y111.391 E29.21284
G1 X115.62 Y111.583 E29.23221
G1 X115.259 Y111.68 E29.24961
G1 X114.904 Y111.696 E29.26616
G0 F10500 X114.769 Y112.284
;MESH:NONMESH
G0 F300 X114.769 Y112.284 Z2.52
G0 F10500 X115.213 Y112.105
;TIME_ELAPSED:73.613113
;LAYER:8
;note -- min layer time used
;TYPE:WALL-INNER
;MESH:Dystans.stl
G1 F600 X114.671 Y112.071 E29.29145
G1 X114.152 Y111.938 E29.3164
G1 X113.728 Y111.669 E29.33978
G1 X113.408 Y111.372 E29.36011
G1 X113.17 Y111.032 E29.37943
G1 X112.992 Y110.608 E29.40084
G1 X112.913 Y110.234 E29.41864
G1 X112.909 Y109.806 E29.43857
G1 X112.999 Y109.363 E29.45962
G1 X113.17 Y108.968 E29.47967
G1 X113.405 Y108.627 E29.49895
G1 X113.716 Y108.335 E29.51881
G1 X114.17 Y108.052 E29.54372
G1 X114.77 Y107.894 E29.57262
G1 X115.309 Y107.921 E29.59774
G1 X115.834 Y108.053 E29.62295
G1 X116.261 Y108.318 E29.64635
G1 X116.601 Y108.639 E29.66813
G1 X116.839 Y108.98 E29.68749
G1 X117.002 Y109.366 E29.707
G1 X117.093 Y109.779 E29.72669
G1 X117.085 Y110.245 E29.74839
G1 X117.005 Y110.622 E29.76634
G1 X116.846 Y111.009 E29.78582
G1 X116.597 Y111.36 E29.80586
G1 X116.309 Y111.642 E29.82463
G1 X115.817 Y111.948 E29.85161
G1 X115.213 Y112.105 E29.88067
G0 F10500 X115.053 Y112.497
G1 F604.5 X115.365 Y112.474 E29.89513
G1 F603 X115.693 Y112.395 E29.91076
G1 F604.5 X116.006 Y112.29 E29.92601
G1 F603 X116.292 Y112.133 E29.94113
G1 F600 X116.563 Y111.947 E29.95644
G1 F606.1 X116.829 Y111.696 E29.9733
G1 F598.5 X117.02 Y111.461 E29.98743
G1 F597 X117.199 Y111.183 E30.0029
G1 F598.5 X117.33 Y110.891 E30.01784
G1 F595.5 X117.43 Y110.566 E30.0338
G1 F591.1 X117.494 Y110.168 E30.05285
G1 F594.1 X117.488 Y109.746 E30.0727
G1 F595.5 X117.429 Y109.428 E30.08787
G1 F592.6 X117.33 Y109.106 E30.10375
G1 F597 X117.199 Y108.813 E30.11877
G1 F595.5 X117.02 Y108.535 E30.13428
G1 F594.1 X116.806 Y108.276 E30.15008
G1 F600 X116.562 Y108.05 E30.16557
G1 F597 X116.293 Y107.863 E30.1809
G1 F606.1 X116.006 Y107.705 E30.19601
G1 F607.6 X115.693 Y107.601 E30.21117
G1 F598.5 X115.364 Y107.526 E30.22692
G1 F597 X115.051 Y107.502 E30.24161
G1 F594.1 X114.679 Y107.508 E30.25911
G1 F600 X114.22 Y107.626 E30.28118
G1 F604.5 X113.925 Y107.738 E30.29576
G1 F598.5 X113.633 Y107.91 E30.31158
G1 F592.6 X113.375 Y108.101 E30.32672
G1 F597 X113.126 Y108.344 E30.343
G1 F595.5 X112.937 Y108.595 E30.35774
G1 F588.2 X112.728 Y108.957 E30.37759
G1 F591.1 X112.592 Y109.34 E30.3968
G1 F601.5 X112.525 Y109.67 E30.41244
G1 F592.6 X112.502 Y110.079 E30.43175
G1 F585.4 X112.557 Y110.502 E30.45211
G1 F594.1 X112.637 Y110.808 E30.46699
G1 F598.5 X112.766 Y111.117 E30.48262
G1 F592.6 X112.933 Y111.397 E30.49799
G1 F594.1 X113.126 Y111.651 E30.51299
G1 F598.5 X113.4 Y111.915 E30.53075
G1 F594.1 X113.632 Y112.086 E30.54431
G1 X113.973 Y112.286 E30.5629
G1 F591.1 X114.302 Y112.399 E30.57934
G1 X114.705 Y112.477 E30.59874
G1 F598.5 X115.053 Y112.497 E30.61501
G0 F10500 X115.059 Y112.898
G1 F600 X115.425 Y112.866 E30.63212
G1 X115.804 Y112.782 E30.6502
G1 X116.164 Y112.652 E30.66802
G1 X116.502 Y112.478 E30.68572
G1 X116.813 Y112.256 E30.70351
G1 X117.096 Y111.997 E30.72138
G1 X117.345 Y111.698 E30.73949
G1 X117.551 Y111.373 E30.75741
G1 X117.705 Y111.034 E30.77475
G1 X117.822 Y110.658 E30.79309
G1 X117.898 Y110.193 E30.81503
G1 X117.882 Y109.71 E30.83753
G1 X117.822 Y109.337 E30.85512
G1 X117.706 Y108.963 E30.87335
G1 X117.551 Y108.623 E30.89075
G1 X117.346 Y108.298 E30.90865
G1 X117.096 Y107.999 E30.92679
G1 X116.813 Y107.74 E30.94466
G1 X116.503 Y107.518 E30.96241
G1 X116.163 Y107.344 E30.9802
G1 X115.804 Y107.214 E30.99797
G1 X115.424 Y107.131 E31.01609
G1 X115.057 Y107.098 E31.03324
G1 X114.571 Y107.125 E31.05591
G1 X114.097 Y107.245 E31.07868
G1 X113.755 Y107.379 E31.09578
G1 X113.413 Y107.572 E31.11407
G1 X113.113 Y107.797 E31.13153
G1 X112.826 Y108.079 E31.15026
G1 X112.603 Y108.37 E31.16734
G1 X112.357 Y108.788 E31.18992
G1 X112.205 Y109.236 E31.21195
G1 X112.129 Y109.617 E31.23004
G1 X112.095 Y110.092 E31.25221
G1 X112.161 Y110.581 E31.27519
G1 X112.258 Y110.937 E31.29237
G1 X112.407 Y111.296 E31.31047
G1 X112.598 Y111.623 E31.3281
G1 X112.826 Y111.917 E31.34543
G1 X113.113 Y112.199 E31.36416
G1 X113.412 Y112.424 E31.38159
G1 X113.757 Y112.617 E31.4
G1 X114.19 Y112.791 E31.42172
G1 X114.659 Y112.875 E31.44391
G1 X115.059 Y112.898 E31.46257
G0 F10500 X115.065 Y113.299
;TYPE:WALL-OUTER
G1 F600 X115.485 Y113.262 E31.4822
G1 X115.916 Y113.167 E31.50275
G1 X116.324 Y113.02 E31.52294
G1 X116.711 Y112.82 E31.54323
G1 X117.065 Y112.568 E31.56346
G1 X117.386 Y112.273 E31.58376
G1 X117.669 Y111.934 E31.60433
G1 X117.903 Y111.564 E31.62471
G1 X118.08 Y111.176 E31.64457
G1 X118.212 Y110.75 E31.66534
G1 X118.299 Y110.219 E31.69039
G1 X118.28 Y109.672 E31.71588
G1 X118.212 Y109.246 E31.73596
G1 X118.08 Y108.82 E31.75673
G1 X117.903 Y108.432 E31.77659
G1 X117.67 Y108.062 E31.79695
G1 X117.386 Y107.723 E31.81754
G1 X117.065 Y107.428 E31.83784
G1 X116.711 Y107.176 E31.85808
G1 X116.323 Y106.976 E31.8784
G1 X115.916 Y106.829 E31.89855
G1 X115.485 Y106.735 E31.91909
G1 X115.064 Y106.697 E31.93878
G1 X114.511 Y106.727 E31.96456
G1 X113.974 Y106.863 E31.99036
G1 X113.583 Y107.017 E32.00993
G1 X113.194 Y107.236 E32.03071
G1 X112.851 Y107.493 E32.05067
G1 X112.526 Y107.813 E32.07191
G1 X112.271 Y108.145 E32.0914
G1 X111.991 Y108.62 E32.11708
G1 X111.818 Y109.132 E32.14224
G1 X111.731 Y109.563 E32.16271
G1 X111.693 Y110.105 E32.18801
G1 X111.769 Y110.66 E32.2141
G1 X111.878 Y111.067 E32.23372
G1 X112.048 Y111.474 E32.25426
G1 X112.266 Y111.847 E32.27437
G1 X112.526 Y112.183 E32.29416
G1 X112.851 Y112.503 E32.31539
G1 X113.194 Y112.76 E32.33535
G1 X113.583 Y112.979 E32.35614
G1 X114.08 Y113.178 E32.38107
G1 X114.612 Y113.273 E32.40623
G1 X115.065 Y113.299 E32.42736
G1 F2700 E27.42736
G0 F10500 X115.046 Y112.599
G0 X115.178 Y111.7
G1 F2700 E32.42736
G1 F600 X114.761 Y111.68 E32.4468
G1 X114.333 Y111.574 E32.46733
G1 X113.968 Y111.349 E32.4873
G1 X113.716 Y111.111 E32.50344
G1 X113.515 Y110.83 E32.51952
G1 X113.385 Y110.524 E32.53501
G1 X113.309 Y110.18 E32.55141
G1 X113.308 Y109.834 E32.56752
G1 X113.372 Y109.512 E32.58281
G1 X113.523 Y109.157 E32.60077
G1 X113.701 Y108.901 E32.61529
G1 X113.956 Y108.655 E32.63179
G1 X114.307 Y108.436 E32.65105
G1 X114.829 Y108.296 E32.67622
G1 X115.253 Y108.317 E32.69599
G1 X115.684 Y108.429 E32.71672
G1 X116.029 Y108.644 E32.73565
G1 X116.294 Y108.895 E32.75265
G1 X116.477 Y109.16 E32.76764
G1 X116.62 Y109.484 E32.78413
G1 X116.69 Y109.812 E32.79975
G1 X116.69 Y110.181 E32.81693
G1 X116.623 Y110.504 E32.83229
G1 X116.495 Y110.808 E32.84765
G1 X116.29 Y111.104 E32.86442
G1 X116.053 Y111.334 E32.8798
G1 X115.679 Y111.567 E32.90031
G1 X115.178 Y111.7 E32.92445
;MESH:NONMESH
G0 F300 X115.178 Y111.7 Z2.8
G0 F10500 X115.212 Y112.105
;TIME_ELAPSED:82.232224
;LAYER:9
;note -- min layer time used
;TYPE:WALL-INNER
;MESH:Dystans.stl
G1 F600 X114.553 Y112.065 E32.95519
G1 X114.045 Y111.868 E32.98056
G1 X113.72 Y111.665 E32.99841
G1 X113.408 Y111.376 E33.01821
G1 X113.094 Y110.922 E33.04391
G1 X112.944 Y110.422 E33.06822
G1 X112.887 Y109.91 E33.09221
G1 X112.999 Y109.359 E33.11839
G1 X113.17 Y108.968 E33.13826
G1 X113.409 Y108.623 E33.1578
G1 X113.72 Y108.331 E33.17767
G1 X114.17 Y108.052 E33.20232
G1 X114.772 Y107.894 E33.2313
G1 X115.405 Y107.923 E33.26081
G1 X116.037 Y108.156 E33.29218
G1 X116.439 Y108.469 E33.3159
G1 X116.724 Y108.789 E33.33585
G1 X116.933 Y109.172 E33.35617
G1 X117.061 Y109.604 E33.37715
G1 X117.114 Y110.107 E33.4007
G1 X117.006 Y110.626 E33.42539
G1 X116.845 Y111.01 E33.44477
G1 X116.597 Y111.36 E33.46475
G1 X116.286 Y111.663 E33.48497
G1 X115.82 Y111.946 E33.51035
G1 X115.212 Y112.105 E33.53962
G0 F10500 X115.053 Y112.497
G1 F604.5 X115.364 Y112.474 E33.55403
G1 F603 X115.693 Y112.395 E33.5697
G1 F604.5 X116.006 Y112.29 E33.58496
G1 F603 X116.292 Y112.133 E33.60008
G1 F597 X116.562 Y111.946 E33.61545
G1 F600 X116.806 Y111.72 E33.63093
G1 F595.5 X117.02 Y111.461 E33.6467
G1 F597 X117.199 Y111.183 E33.66217
G1 F600 X117.331 Y110.891 E33.67709
G1 F597 X117.43 Y110.566 E33.69299
G1 X117.507 Y110.127 E33.71385
G1 F594.1 X117.481 Y109.748 E33.73171
G1 X117.431 Y109.428 E33.74695
G1 F597 X117.331 Y109.107 E33.76268
G1 F592.6 X117.196 Y108.815 E33.77785
G1 F597 X117.024 Y108.533 E33.7933
G1 F601.5 X116.806 Y108.276 E33.80896
G1 F594.1 X116.56 Y108.053 E33.82457
G1 F600 X116.296 Y107.858 E33.83986
G1 F603 X116.003 Y107.712 E33.85502
G1 F598.5 X115.694 Y107.599 E33.87038
G1 F604.5 X115.364 Y107.524 E33.88602
G1 F600 X115.051 Y107.502 E33.90063
G1 F594.1 X114.679 Y107.508 E33.91813
G1 F597 X114.22 Y107.626 E33.94031
G1 F603 X113.925 Y107.738 E33.95493
G1 F600 X113.632 Y107.91 E33.97075
G1 F594.1 X113.375 Y108.101 E33.98581
G1 F598.5 X113.127 Y108.344 E34.00201
G1 F595.5 X112.937 Y108.595 E34.01678
G1 F586.8 X112.728 Y108.956 E34.03664
G1 F591.1 X112.591 Y109.34 E34.05591
G1 F606.1 X112.504 Y109.768 E34.07605
G1 F600 X112.5 Y110.079 E34.09053
G1 F595.5 X112.554 Y110.503 E34.11058
G1 F597 X112.64 Y110.811 E34.12555
G1 X112.752 Y111.113 E34.14062
G1 X112.932 Y111.397 E34.15635
G1 X113.125 Y111.652 E34.17132
G1 F601.5 X113.393 Y111.911 E34.18863
G1 F595.5 X113.632 Y112.086 E34.20253
G1 X113.93 Y112.256 E34.21862
G1 F594.1 X114.302 Y112.401 E34.2374
G1 F600 X114.599 Y112.471 E34.25161
G1 F603 X115.053 Y112.497 E34.27268
G0 F10500 X115.059 Y112.898
G1 F600 X115.424 Y112.866 E34.28974
G1 X115.804 Y112.782 E34.30786
G1 X116.164 Y112.652 E34.32568
G1 X116.502 Y112.478 E34.34338
G1 X116.813 Y112.256 E34.36118
G1 X117.096 Y111.997 E34.37904
G1 X117.345 Y111.698 E34.39716
G1 X117.551 Y111.373 E34.41508
G1 X117.705 Y111.033 E34.43246
G1 X117.822 Y110.658 E34.45075
G1 X117.898 Y110.193 E34.47269
G1 X117.882 Y109.71 E34.49519
G1 X117.822 Y109.337 E34.51278
G1 X117.706 Y108.964 E34.53097
G1 X117.551 Y108.623 E34.54841
G1 X117.346 Y108.299 E34.56626
G1 X117.096 Y107.999 E34.58445
G1 X116.813 Y107.74 E34.60231
G1 X116.503 Y107.518 E34.62007
G1 X116.163 Y107.344 E34.63785
G1 X115.805 Y107.214 E34.65559
G1 X115.424 Y107.131 E34.67374
G1 X115.057 Y107.098 E34.6909
G1 X114.571 Y107.124 E34.71356
G1 X114.097 Y107.244 E34.73633
G1 X113.755 Y107.379 E34.75345
G1 X113.412 Y107.572 E34.77178
G1 X113.113 Y107.797 E34.7892
G1 X112.827 Y108.079 E34.80791
G1 X112.603 Y108.369 E34.82497
G1 X112.357 Y108.787 E34.84755
G1 X112.205 Y109.236 E34.86963
G1 X112.128 Y109.617 E34.88773
G1 X112.095 Y110.092 E34.9099
G1 X112.162 Y110.581 E34.93288
G1 X112.258 Y110.941 E34.95023
G1 X112.406 Y111.295 E34.96809
G1 X112.598 Y111.623 E34.98579
G1 X112.826 Y111.917 E35.00312
G1 X113.113 Y112.199 E35.02185
G1 X113.412 Y112.424 E35.03928
G1 X113.757 Y112.617 E35.05768
G1 X114.191 Y112.791 E35.07946
G1 X114.659 Y112.873 E35.10158
G1 X115.059 Y112.898 E35.12024
G0 F10500 X115.065 Y113.299
;TYPE:WALL-OUTER
G1 F600 X115.485 Y113.262 E35.13987
G1 X115.916 Y113.167 E35.16043
G1 X116.324 Y113.02 E35.18062
G1 X116.711 Y112.82 E35.2009
G1 X117.065 Y112.568 E35.22114
G1 X117.386 Y112.273 E35.24144
G1 X117.669 Y111.934 E35.262
G1 X117.903 Y111.564 E35.28239
G1 X118.08 Y111.176 E35.30224
G1 X118.212 Y110.75 E35.32301
G1 X118.299 Y110.219 E35.34807
G1 X118.28 Y109.672 E35.37355
G1 X118.212 Y109.246 E35.39364
G1 X118.08 Y108.82 E35.41441
G1 X117.903 Y108.432 E35.43426
G1 X117.67 Y108.063 E35.45458
G1 X117.386 Y107.723 E35.47521
G1 X117.065 Y107.428 E35.49551
G1 X116.711 Y107.176 E35.51575
G1 X116.323 Y106.976 E35.53607
G1 X115.916 Y106.829 E35.55622
G1 X115.485 Y106.735 E35.57676
G1 X115.064 Y106.697 E35.59645
G1 X114.511 Y106.727 E35.62223
G1 X113.974 Y106.863 E35.64803
G1 X113.583 Y107.017 E35.6676
G1 X113.194 Y107.236 E35.68838
G1 X112.851 Y107.493 E35.70834
G1 X112.527 Y107.813 E35.72955
G1 X112.271 Y108.145 E35.74907
G1 X111.991 Y108.62 E35.77474
G1 X111.818 Y109.132 E35.79991
G1 X111.731 Y109.563 E35.82038
G1 X111.693 Y110.105 E35.84568
G1 X111.769 Y110.66 E35.87177
G1 X111.878 Y111.071 E35.89156
G1 X112.048 Y111.474 E35.91193
G1 X112.266 Y111.847 E35.93205
G1 X112.526 Y112.183 E35.95183
G1 X112.851 Y112.503 E35.97307
G1 X113.194 Y112.76 E35.99303
G1 X113.583 Y112.979 E36.01381
G1 X114.08 Y113.178 E36.03874
G1 X114.612 Y113.272 E36.0639
G1 X115.065 Y113.299 E36.08503
G1 F2700 E31.08503
G0 F10500 X115.046 Y112.599
G0 X115.174 Y111.7
G1 F2700 E36.08503
G1 F600 X114.661 Y111.673 E36.10895
G1 X114.258 Y111.527 E36.12891
G1 X113.96 Y111.345 E36.14517
G1 X113.699 Y111.095 E36.162
G1 X113.471 Y110.766 E36.18064
G1 X113.333 Y110.328 E36.20202
G1 X113.292 Y109.91 E36.22158
G1 X113.378 Y109.487 E36.24168
G1 X113.515 Y109.17 E36.25776
G1 X113.705 Y108.897 E36.27324
G1 X113.974 Y108.641 E36.29054
G1 X114.307 Y108.436 E36.30874
G1 X114.822 Y108.294 E36.33362
G1 X115.343 Y108.324 E36.35792
G1 X115.824 Y108.501 E36.38178
G1 X116.168 Y108.764 E36.40195
G1 X116.402 Y109.032 E36.41851
G1 X116.558 Y109.324 E36.43393
G1 X116.661 Y109.645 E36.44963
G1 X116.706 Y110.105 E36.47115
G1 X116.624 Y110.508 E36.4903
G1 X116.495 Y110.808 E36.50551
G1 X116.29 Y111.104 E36.52227
G1 X116.046 Y111.337 E36.53798
G1 X115.679 Y111.567 E36.55815
G1 X115.174 Y111.7 E36.58247
;MESH:NONMESH
G0 F300 X115.174 Y111.7 Z3.08
G0 F10500 X115.212 Y112.105
;TIME_ELAPSED:90.850685
;LAYER:10
;note -- min layer time used
;TYPE:WALL-INNER
;MESH:Dystans.stl
G1 F600 X114.553 Y112.065 E36.61321
G1 X114.045 Y111.868 E36.63858
G1 X113.72 Y111.665 E36.65642
G1 X113.408 Y111.376 E36.67622
G1 X113.094 Y110.922 E36.70193
G1 X112.944 Y110.422 E36.72624
G1 X112.887 Y109.91 E36.75022
G1 X112.999 Y109.359 E36.77641
G1 X113.17 Y108.968 E36.79628
G1 X113.409 Y108.623 E36.81582
G1 X113.72 Y108.331 E36.83568
G1 X114.17 Y108.052 E36.86034
G1 X114.772 Y107.894 E36.88932
G1 X115.405 Y107.923 E36.91883
G1 X116.037 Y108.156 E36.95019
G1 X116.439 Y108.469 E36.97391
G1 X116.724 Y108.789 E36.99387
G1 X116.933 Y109.172 E37.01418
G1 X117.061 Y109.604 E37.03516
G1 X117.114 Y110.107 E37.05872
G1 X117.006 Y110.626 E37.0834
G1 X116.845 Y111.01 E37.10279
G1 X116.597 Y111.36 E37.12276
G1 X116.286 Y111.663 E37.14298
G1 X115.82 Y111.946 E37.16837
G1 X115.212 Y112.105 E37.19763
G0 F10500 X115.053 Y112.497
G1 F604.5 X115.364 Y112.474 E37.21204
G1 F603 X115.693 Y112.395 E37.22772
G1 F604.5 X116.006 Y112.29 E37.24298
G1 F603 X116.292 Y112.133 E37.25809
G1 F597 X116.562 Y111.946 E37.27346
G1 F600 X116.806 Y111.72 E37.28895
G1 F595.5 X117.02 Y111.461 E37.30471
G1 F597 X117.199 Y111.183 E37.32018
G1 F600 X117.331 Y110.891 E37.33511
G1 F597 X117.43 Y110.566 E37.351
G1 X117.507 Y110.127 E37.37186
G1 F594.1 X117.481 Y109.748 E37.38973
G1 X117.431 Y109.428 E37.40496
G1 F597 X117.331 Y109.107 E37.42069
G1 F592.6 X117.196 Y108.815 E37.43586
G1 F597 X117.024 Y108.533 E37.45132
G1 F601.5 X116.806 Y108.276 E37.46697
G1 F594.1 X116.56 Y108.053 E37.48259
G1 F600 X116.296 Y107.858 E37.49787
G1 F603 X116.003 Y107.712 E37.51304
G1 F598.5 X115.694 Y107.599 E37.5284
G1 F604.5 X115.364 Y107.524 E37.54404
G1 F600 X115.051 Y107.502 E37.55865
G1 F594.1 X114.679 Y107.508 E37.57614
G1 F597 X114.22 Y107.626 E37.59832
G1 F603 X113.925 Y107.738 E37.61294
G1 F600 X113.632 Y107.91 E37.62876
G1 F594.1 X113.375 Y108.101 E37.64382
G1 F598.5 X113.127 Y108.344 E37.66003
G1 F595.5 X112.937 Y108.595 E37.6748
G1 F586.8 X112.728 Y108.956 E37.69466
G1 F591.1 X112.591 Y109.34 E37.71393
G1 F606.1 X112.504 Y109.768 E37.73406
G1 F600 X112.5 Y110.079 E37.74854
G1 F595.5 X112.554 Y110.503 E37.7686
G1 F597 X112.64 Y110.811 E37.78356
G1 X112.752 Y111.113 E37.79863
G1 X112.932 Y111.397 E37.81437
G1 X113.125 Y111.652 E37.82933
G1 F601.5 X113.393 Y111.911 E37.84665
G1 F595.5 X113.632 Y112.086 E37.86054
G1 X113.93 Y112.256 E37.87664
G1 F594.1 X114.302 Y112.401 E37.89541
G1 F600 X114.599 Y112.471 E37.90962
G1 F603 X115.053 Y112.497 E37.93069
G0 F10500 X115.059 Y112.898
G1 F600 X115.424 Y112.866 E37.94775
G1 X115.804 Y112.782 E37.96587
G1 X116.164 Y112.652 E37.9837
G1 X116.502 Y112.478 E38.0014
G1 X116.813 Y112.256 E38.01919
G1 X117.096 Y111.997 E38.03705
G1 X117.345 Y111.698 E38.05517
G1 X117.551 Y111.373 E38.07309
G1 X117.705 Y111.033 E38.09047
G1 X117.822 Y110.658 E38.10876
G1 X117.898 Y110.193 E38.1307
G1 X117.882 Y109.71 E38.1532
G1 X117.822 Y109.337 E38.1708
G1 X117.706 Y108.964 E38.18898
G1 X117.551 Y108.623 E38.20643
G1 X117.346 Y108.299 E38.22428
G1 X117.096 Y107.999 E38.24246
G1 X116.813 Y107.74 E38.26033
G1 X116.503 Y107.518 E38.27808
G1 X116.163 Y107.344 E38.29587
G1 X115.805 Y107.214 E38.3136
G1 X115.424 Y107.131 E38.33176
G1 X115.057 Y107.098 E38.34892
G1 X114.571 Y107.124 E38.37158
G1 X114.097 Y107.244 E38.39435
G1 X113.755 Y107.379 E38.41147
G1 X113.412 Y107.572 E38.42979
G1 X113.113 Y107.797 E38.44722
G1 X112.827 Y108.079 E38.46592
G1 X112.603 Y108.369 E38.48298
G1 X112.357 Y108.787 E38.50557
G1 X112.205 Y109.236 E38.52764
G1 X112.128 Y109.617 E38.54574
G1 X112.095 Y110.092 E38.56791
G1 X112.162 Y110.581 E38.59089
G1 X112.258 Y110.941 E38.60824
G1 X112.406 Y111.295 E38.62611
G1 X112.598 Y111.623 E38.64381
G1 X112.826 Y111.917 E38.66113
G1 X113.113 Y112.199 E38.67987
G1 X113.412 Y112.424 E38.69729
G1 X113.757 Y112.617 E38.7157
G1 X114.191 Y112.791 E38.73747
G1 X114.659 Y112.873 E38.75959
G1 X115.059 Y112.898 E38.77826
G0 F10500 X115.065 Y113.299
;TYPE:WALL-OUTER
G1 F600 X115.485 Y113.262 E38.79789
G1 X115.916 Y113.167 E38.81844
G1 X116.324 Y113.02 E38.83863
G1 X116.711 Y112.82 E38.85892
G1 X117.065 Y112.568 E38.87915
G1 X117.386 Y112.273 E38.89945
G1 X117.669 Y111.934 E38.92002
G1 X117.903 Y111.564 E38.9404
G1 X118.08 Y111.176 E38.96026
G1 X118.212 Y110.75 E38.98103
G1 X118.299 Y110.219 E39.00608
G1 X118.28 Y109.672 E39.03157
G1 X118.212 Y109.246 E39.05165
G1 X118.08 Y108.82 E39.07242
G1 X117.903 Y108.432 E39.09228
G1 X117.67 Y108.063 E39.1126
G1 X117.386 Y107.723 E39.13323
G1 X117.065 Y107.428 E39.15353
G1 X116.711 Y107.176 E39.17376
G1 X116.323 Y106.976 E39.19409
G1 X115.916 Y106.829 E39.21424
G1 X115.485 Y106.735 E39.23478
G1 X115.064 Y106.697 E39.25446
G1 X114.511 Y106.727 E39.28025
G1 X113.974 Y106.863 E39.30604
G1 X113.583 Y107.017 E39.32561
G1 X113.194 Y107.236 E39.3464
G1 X112.851 Y107.493 E39.36636
G1 X112.527 Y107.813 E39.38756
G1 X112.271 Y108.145 E39.40708
G1 X111.991 Y108.62 E39.43276
G1 X111.818 Y109.132 E39.45792
G1 X111.731 Y109.563 E39.4784
G1 X111.693 Y110.105 E39.5037
G1 X111.769 Y110.66 E39.52978
G1 X111.878 Y111.071 E39.54958
G1 X112.048 Y111.474 E39.56995
G1 X112.266 Y111.847 E39.59006
G1 X112.526 Y112.183 E39.60985
G1 X112.851 Y112.503 E39.63108
G1 X113.194 Y112.76 E39.65104
G1 X113.583 Y112.979 E39.67183
G1 X114.08 Y113.178 E39.69676
G1 X114.612 Y113.272 E39.72191
G1 X115.065 Y113.299 E39.74304
G1 F2700 E34.74304
G0 F10500 X115.046 Y112.599
G0 X115.174 Y111.7
G1 F2700 E39.74304
G1 F600 X114.661 Y111.673 E39.76696
G1 X114.258 Y111.527 E39.78692
G1 X113.96 Y111.345 E39.80318
G1 X113.699 Y111.095 E39.82001
G1 X113.471 Y110.766 E39.83865
G1 X113.333 Y110.328 E39.86003
G1 X113.292 Y109.91 E39.87959
G1 X113.378 Y109.487 E39.89969
G1 X113.515 Y109.17 E39.91577
G1 X113.705 Y108.897 E39.93126
G1 X113.974 Y108.641 E39.94855
G1 X114.307 Y108.436 E39.96676
G1 X114.822 Y108.294 E39.99163
G1 X115.343 Y108.324 E40.01593
G1 X115.824 Y108.501 E40.0398
G1 X116.168 Y108.764 E40.05996
G1 X116.402 Y109.032 E40.07653
G1 X116.558 Y109.324 E40.09194
G1 X116.661 Y109.645 E40.10764
G1 X116.706 Y110.105 E40.12916
G1 X116.624 Y110.508 E40.14831
G1 X116.495 Y110.808 E40.16352
G1 X116.29 Y111.104 E40.18029
G1 X116.046 Y111.337 E40.196
G1 X115.679 Y111.567 E40.21616
G1 X115.174 Y111.7 E40.24048
;MESH:NONMESH
G0 F300 X115.174 Y111.7 Z3.36
G0 F10500 X115.212 Y112.105
;TIME_ELAPSED:99.469145
;LAYER:11
;note -- min layer time used
;TYPE:WALL-INNER
;MESH:Dystans.stl
G1 F600 X114.553 Y112.065 E40.27122
G1 X114.045 Y111.868 E40.29659
G1 X113.72 Y111.665 E40.31444
G1 X113.408 Y111.376 E40.33424
G1 X113.094 Y110.922 E40.35994
G1 X112.944 Y110.422 E40.38425
G1 X112.887 Y109.91 E40.40824
G1 X112.999 Y109.359 E40.43442
G1 X113.17 Y108.968 E40.45429
G1 X113.409 Y108.623 E40.47383
G1 X113.72 Y108.331 E40.4937
G1 X114.17 Y108.052 E40.51835
G1 X114.772 Y107.894 E40.54733
G1 X115.405 Y107.923 E40.57684
G1 X116.037 Y108.156 E40.6082
G1 X116.439 Y108.469 E40.63193
G1 X116.724 Y108.789 E40.65188
G1 X116.933 Y109.172 E40.6722
G1 X117.061 Y109.604 E40.69318
G1 X117.114 Y110.107 E40.71673
G1 X117.006 Y110.626 E40.74141
G1 X116.845 Y111.01 E40.7608
G1 X116.597 Y111.36 E40.78078
G1 X116.286 Y111.663 E40.801
G1 X115.82 Y111.946 E40.82638
G1 X115.212 Y112.105 E40.85565
G0 F10500 X115.053 Y112.497
G1 F604.5 X115.364 Y112.474 E40.87006
G1 F603 X115.693 Y112.395 E40.88573
G1 F604.5 X116.006 Y112.29 E40.90099
G1 F603 X116.292 Y112.133 E40.91611
G1 F597 X116.562 Y111.946 E40.93148
G1 F600 X116.806 Y111.72 E40.94696
G1 F595.5 X117.02 Y111.461 E40.96273
G1 F597 X117.199 Y111.183 E40.9782
G1 F600 X117.331 Y110.891 E40.99312
G1 F597 X117.43 Y110.566 E41.00902
G1 X117.507 Y110.127 E41.02988
G1 F594.1 X117.481 Y109.748 E41.04774
G1 X117.431 Y109.428 E41.06297
G1 F597 X117.331 Y109.107 E41.07871
G1 F592.6 X117.196 Y108.815 E41.09388
G1 F597 X117.024 Y108.533 E41.10933
G1 F601.5 X116.806 Y108.276 E41.12499
G1 F594.1 X116.56 Y108.053 E41.1406
G1 F600 X116.296 Y107.858 E41.15588
G1 F603 X116.003 Y107.712 E41.17105
G1 F598.5 X115.694 Y107.599 E41.18641
G1 F604.5 X115.364 Y107.524 E41.20205
G1 F600 X115.051 Y107.502 E41.21666
G1 F594.1 X114.679 Y107.508 E41.23416
G1 F597 X114.22 Y107.626 E41.25634
G1 F603 X113.925 Y107.738 E41.27096
G1 F600 X113.632 Y107.91 E41.28678
G1 F594.1 X113.375 Y108.101 E41.30184
G1 F598.5 X113.127 Y108.344 E41.31804
G1 F595.5 X112.937 Y108.595 E41.33281
G1 F586.8 X112.728 Y108.956 E41.35267
G1 F591.1 X112.591 Y109.34 E41.37194
G1 F606.1 X112.504 Y109.768 E41.39208
G1 F600 X112.5 Y110.079 E41.40656
G1 F595.5 X112.554 Y110.503 E41.42661
G1 F597 X112.64 Y110.811 E41.44157
G1 X112.752 Y111.113 E41.45665
G1 X112.932 Y111.397 E41.47238
G1 X113.125 Y111.652 E41.48735
G1 F601.5 X113.393 Y111.911 E41.50466
G1 F595.5 X113.632 Y112.086 E41.51856
G1 X113.93 Y112.256 E41.53465
G1 F594.1 X114.302 Y112.401 E41.55343
G1 F600 X114.599 Y112.471 E41.56764
G1 F603 X115.053 Y112.497 E41.58871
G0 F10500 X115.059 Y112.898
G1 F600 X115.424 Y112.866 E41.60577
G1 X115.804 Y112.782 E41.62389
G1 X116.164 Y112.652 E41.64171
G1 X116.502 Y112.478 E41.65941
G1 X116.813 Y112.256 E41.67721
G1 X117.096 Y111.997 E41.69507
G1 X117.345 Y111.698 E41.71319
G1 X117.551 Y111.373 E41.7311
G1 X117.705 Y111.033 E41.74848
G1 X117.822 Y110.658 E41.76678
G1 X117.898 Y110.193 E41.78872
G1 X117.882 Y109.71 E41.81122
G1 X117.822 Y109.337 E41.82881
G1 X117.706 Y108.964 E41.847
G1 X117.551 Y108.623 E41.86444
G1 X117.346 Y108.299 E41.88229
G1 X117.096 Y107.999 E41.90048
G1 X116.813 Y107.74 E41.91834
G1 X116.503 Y107.518 E41.9361
G1 X116.163 Y107.344 E41.95388
G1 X115.805 Y107.214 E41.97162
G1 X115.424 Y107.131 E41.98977
G1 X115.057 Y107.098 E42.00693
G1 X114.571 Y107.124 E42.02959
G1 X114.097 Y107.244 E42.05236
G1 X113.755 Y107.379 E42.06948
G1 X113.412 Y107.572 E42.08781
G1 X113.113 Y107.797 E42.10523
G1 X112.827 Y108.079 E42.12393
G1 X112.603 Y108.369 E42.141
G1 X112.357 Y108.787 E42.16358
G1 X112.205 Y109.236 E42.18565
G1 X112.128 Y109.617 E42.20375
G1 X112.095 Y110.092 E42.22593
G1 X112.162 Y110.581 E42.24891
G1 X112.258 Y110.941 E42.26626
G1 X112.406 Y111.295 E42.28412
G1 X112.598 Y111.623 E42.30182
G1 X112.826 Y111.917 E42.31915
G1 X113.113 Y112.199 E42.33788
G1 X113.412 Y112.424 E42.35531
G1 X113.757 Y112.617 E42.37371
G1 X114.191 Y112.791 E42.39549
G1 X114.659 Y112.873 E42.41761
G1 X115.059 Y112.898 E42.43627
G0 F10500 X115.065 Y113.299
;TYPE:WALL-OUTER
G1 F600 X115.485 Y113.262 E42.4559
G1 X115.916 Y113.167 E42.47645
G1 X116.324 Y113.02 E42.49665
G1 X116.711 Y112.82 E42.51693
G1 X117.065 Y112.568 E42.53717
G1 X117.386 Y112.273 E42.55747
G1 X117.669 Y111.934 E42.57803
G1 X117.903 Y111.564 E42.59841
G1 X118.08 Y111.176 E42.61827
G1 X118.212 Y110.75 E42.63904
G1 X118.299 Y110.219 E42.6641
G1 X118.28 Y109.672 E42.68958
G1 X118.212 Y109.246 E42.70967
G1 X118.08 Y108.82 E42.73044
G1 X117.903 Y108.432 E42.75029
G1 X117.67 Y108.063 E42.77061
G1 X117.386 Y107.723 E42.79124
G1 X117.065 Y107.428 E42.81154
G1 X116.711 Y107.176 E42.83178
G1 X116.323 Y106.976 E42.8521
G1 X115.916 Y106.829 E42.87225
G1 X115.485 Y106.735 E42.89279
G1 X115.064 Y106.697 E42.91248
G1 X114.511 Y106.727 E42.93826
G1 X113.974 Y106.863 E42.96406
G1 X113.583 Y107.017 E42.98363
G1 X113.194 Y107.236 E43.00441
G1 X112.851 Y107.493 E43.02437
G1 X112.527 Y107.813 E43.04558
G1 X112.271 Y108.145 E43.0651
G1 X111.991 Y108.62 E43.09077
G1 X111.818 Y109.132 E43.11594
G1 X111.731 Y109.563 E43.13641
G1 X111.693 Y110.105 E43.16171
G1 X111.769 Y110.66 E43.18779
G1 X111.878 Y111.071 E43.20759
G1 X112.048 Y111.474 E43.22796
G1 X112.266 Y111.847 E43.24808
G1 X112.526 Y112.183 E43.26786
G1 X112.851 Y112.503 E43.2891
G1 X113.194 Y112.76 E43.30906
G1 X113.583 Y112.979 E43.32984
G1 X114.08 Y113.178 E43.35477
G1 X114.612 Y113.272 E43.37993
G1 X115.065 Y113.299 E43.40106
G1 F2700 E38.40106
G0 F10500 X115.046 Y112.599
G0 X115.174 Y111.7
G1 F2700 E43.40106
G1 F600 X114.661 Y111.673 E43.42498
G1 X114.258 Y111.527 E43.44494
G1 X113.96 Y111.345 E43.4612
G1 X113.699 Y111.095 E43.47803
G1 X113.471 Y110.766 E43.49666
G1 X113.333 Y110.328 E43.51805
G1 X113.292 Y109.91 E43.53761
G1 X113.378 Y109.487 E43.55771
G1 X113.515 Y109.17 E43.57379
G1 X113.705 Y108.897 E43.58927
G1 X113.974 Y108.641 E43.60656
G1 X114.307 Y108.436 E43.62477
G1 X114.822 Y108.294 E43.64965
G1 X115.343 Y108.324 E43.67395
G1 X115.824 Y108.501 E43.69781
G1 X116.168 Y108.764 E43.71798
G1 X116.402 Y109.032 E43.73454
G1 X116.558 Y109.324 E43.74996
G1 X116.661 Y109.645 E43.76566
G1 X116.706 Y110.105 E43.78718
G1 X116.624 Y110.508 E43.80633
G1 X116.495 Y110.808 E43.82153
G1 X116.29 Y111.104 E43.8383
G1 X116.046 Y111.337 E43.85401
G1 X115.679 Y111.567 E43.87418
G1 X115.174 Y111.7 E43.89849
;MESH:NONMESH
G0 F300 X115.174 Y111.7 Z3.64
G0 F10500 X115.212 Y112.105
;TIME_ELAPSED:108.087606
;LAYER:12
;note -- min layer time used
;TYPE:WALL-INNER
;MESH:Dystans.stl
G1 F600 X114.553 Y112.065 E43.92924
G1 X114.045 Y111.868 E43.95461
G1 X113.72 Y111.665 E43.97245
G1 X113.408 Y111.376 E43.99225
G1 X113.094 Y110.922 E44.01796
G1 X112.944 Y110.422 E44.04227
G1 X112.887 Y109.91 E44.06625
G1 X112.999 Y109.359 E44.09243
G1 X113.17 Y108.968 E44.11231
G1 X113.409 Y108.623 E44.13185
G1 X113.72 Y108.331 E44.15171
G1 X114.17 Y108.052 E44.17637
G1 X114.772 Y107.894 E44.20535
G1 X115.405 Y107.923 E44.23485
G1 X116.037 Y108.156 E44.26622
G1 X116.439 Y108.469 E44.28994
G1 X116.724 Y108.789 E44.3099
G1 X116.933 Y109.172 E44.33021
G1 X117.061 Y109.604 E44.35119
G1 X117.114 Y110.107 E44.37475
G1 X117.006 Y110.626 E44.39943
G1 X116.845 Y111.01 E44.41882
G1 X116.597 Y111.36 E44.43879
G1 X116.286 Y111.663 E44.45901
G1 X115.82 Y111.946 E44.4844
G1 X115.212 Y112.105 E44.51366
G0 F10500 X115.053 Y112.497
G1 F604.5 X115.364 Y112.474 E44.52807
G1 F603 X115.693 Y112.395 E44.54375
G1 F604.5 X116.006 Y112.29 E44.55901
G1 F603 X116.292 Y112.133 E44.57412
G1 F597 X116.562 Y111.946 E44.58949
G1 F600 X116.806 Y111.72 E44.60498
G1 F595.5 X117.02 Y111.461 E44.62074
G1 F597 X117.199 Y111.183 E44.63621
G1 F600 X117.331 Y110.891 E44.65113
G1 F597 X117.43 Y110.566 E44.66703
G1 X117.507 Y110.127 E44.68789
G1 F594.1 X117.481 Y109.748 E44.70576
G1 X117.431 Y109.428 E44.72099
G1 F597 X117.331 Y109.107 E44.73672
G1 F592.6 X117.196 Y108.815 E44.75189
G1 F597 X117.024 Y108.533 E44.76735
G1 F601.5 X116.806 Y108.276 E44.783
G1 F594.1 X116.56 Y108.053 E44.79862
G1 F600 X116.296 Y107.858 E44.8139
G1 F603 X116.003 Y107.712 E44.82907
G1 F598.5 X115.694 Y107.599 E44.84443
G1 F604.5 X115.364 Y107.524 E44.86006
G1 F600 X115.051 Y107.502 E44.87468
G1 F594.1 X114.679 Y107.508 E44.89217
G1 F597 X114.22 Y107.626 E44.91435
G1 F603 X113.925 Y107.738 E44.92897
G1 F600 X113.632 Y107.91 E44.94479
G1 F594.1 X113.375 Y108.101 E44.95985
G1 F598.5 X113.127 Y108.344 E44.97606
G1 F595.5 X112.937 Y108.595 E44.99083
G1 F586.8 X112.728 Y108.956 E45.01069
G1 F591.1 X112.591 Y109.34 E45.02996
G1 F606.1 X112.504 Y109.768 E45.05009
G1 F600 X112.5 Y110.079 E45.06457
G1 F595.5 X112.554 Y110.503 E45.08462
G1 F597 X112.64 Y110.811 E45.09959
G1 X112.752 Y111.113 E45.11466
G1 X112.932 Y111.397 E45.1304
G1 X113.125 Y111.652 E45.14536
G1 F601.5 X113.393 Y111.911 E45.16267
G1 F595.5 X113.632 Y112.086 E45.17657
G1 X113.93 Y112.256 E45.19267
G1 F594.1 X114.302 Y112.401 E45.21144
G1 F600 X114.599 Y112.471 E45.22565
G1 F603 X115.053 Y112.497 E45.24672
G0 F10500 X115.059 Y112.898
G1 F600 X115.424 Y112.866 E45.26378
G1 X115.804 Y112.782 E45.2819
G1 X116.164 Y112.652 E45.29973
G1 X116.502 Y112.478 E45.31743
G1 X116.813 Y112.256 E45.33522
G1 X117.096 Y111.997 E45.35308
G1 X117.345 Y111.698 E45.3712
G1 X117.551 Y111.373 E45.38912
G1 X117.705 Y111.033 E45.4065
G1 X117.822 Y110.658 E45.42479
G1 X117.898 Y110.193 E45.44673
G1 X117.882 Y109.71 E45.46923
G1 X117.822 Y109.337 E45.48683
G1 X117.706 Y108.964 E45.50501
G1 X117.551 Y108.623 E45.52246
G1 X117.346 Y108.299 E45.54031
G1 X117.096 Y107.999 E45.55849
G1 X116.813 Y107.74 E45.57636
G1 X116.503 Y107.518 E45.59411
G1 X116.163 Y107.344 E45.6119
G1 X115.805 Y107.214 E45.62963
G1 X115.424 Y107.131 E45.64779
G1 X115.057 Y107.098 E45.66495
G1 X114.571 Y107.124 E45.68761
G1 X114.097 Y107.244 E45.71038
G1 X113.755 Y107.379 E45.7275
G1 X113.412 Y107.572 E45.74582
G1 X113.113 Y107.797 E45.76325
G1 X112.827 Y108.079 E45.78195
G1 X112.603 Y108.369 E45.79901
G1 X112.357 Y108.787 E45.8216
G1 X112.205 Y109.236 E45.84367
G1 X112.128 Y109.617 E45.86177
G1 X112.095 Y110.092 E45.88394
G1 X112.162 Y110.581 E45.90692
G1 X112.258 Y110.941 E45.92427
G1 X112.406 Y111.295 E45.94214
G1 X112.598 Y111.623 E45.95984
G1 X112.826 Y111.917 E45.97716
G1 X113.113 Y112.199 E45.9959
G1 X113.412 Y112.424 E46.01332
G1 X113.757 Y112.617 E46.03173
G1 X114.191 Y112.791 E46.0535
G1 X114.659 Y112.873 E46.07562
G1 X115.059 Y112.898 E46.09429
G0 F10500 X115.065 Y113.299
;TYPE:WALL-OUTER
G1 F600 X115.485 Y113.262 E46.11392
G1 X115.916 Y113.167 E46.13447
G1 X116.324 Y113.02 E46.15466
G1 X116.711 Y112.82 E46.17495
G1 X117.065 Y112.568 E46.19518
G1 X117.386 Y112.273 E46.21548
G1 X117.669 Y111.934 E46.23604
G1 X117.903 Y111.564 E46.25643
G1 X118.08 Y111.176 E46.27629
G1 X118.212 Y110.75 E46.29705
G1 X118.299 Y110.219 E46.32211
G1 X118.28 Y109.672 E46.3476
G1 X118.212 Y109.246 E46.36768
G1 X118.08 Y108.82 E46.38845
G1 X117.903 Y108.432 E46.40831
G1 X117.67 Y108.063 E46.42863
G1 X117.386 Y107.723 E46.44926
G1 X117.065 Y107.428 E46.46956
G1 X116.711 Y107.176 E46.48979
G1 X116.323 Y106.976 E46.51012
G1 X115.916 Y106.829 E46.53027
G1 X115.485 Y106.735 E46.55081
G1 X115.064 Y106.697 E46.57049
G1 X114.511 Y106.727 E46.59628
G1 X113.974 Y106.863 E46.62207
G1 X113.583 Y107.017 E46.64164
G1 X113.194 Y107.236 E46.66243
G1 X112.851 Y107.493 E46.68239
G1 X112.527 Y107.813 E46.70359
G1 X112.271 Y108.145 E46.72311
G1 X111.991 Y108.62 E46.74879
G1 X111.818 Y109.132 E46.77395
G1 X111.731 Y109.563 E46.79443
G1 X111.693 Y110.105 E46.81973
G1 X111.769 Y110.66 E46.84581
G1 X111.878 Y111.071 E46.86561
G1 X112.048 Y111.474 E46.88598
G1 X112.266 Y111.847 E46.90609
G1 X112.526 Y112.183 E46.92588
G1 X112.851 Y112.503 E46.94711
G1 X113.194 Y112.76 E46.96707
G1 X113.583 Y112.979 E46.98786
G1 X114.08 Y113.178 E47.01279
G1 X114.612 Y113.272 E47.03794
G1 X115.065 Y113.299 E47.05907
G1 F2700 E42.05907
G0 F10500 X115.046 Y112.599
G0 X115.174 Y111.7
G1 F2700 E47.05907
G1 F600 X114.661 Y111.673 E47.08299
G1 X114.265 Y111.53 E47.1026
G1 X113.96 Y111.345 E47.11921
G1 X113.699 Y111.095 E47.13604
G1 X113.471 Y110.766 E47.15468
G1 X113.333 Y110.328 E47.17606
G1 X113.292 Y109.91 E47.19562
G1 X113.378 Y109.487 E47.21572
G1 X113.515 Y109.17 E47.2318
G1 X113.705 Y108.897 E47.24728
G1 X113.974 Y108.641 E47.26458
G1 X114.307 Y108.436 E47.28278
G1 X114.822 Y108.294 E47.30766
G1 X115.343 Y108.324 E47.33196
G1 X115.824 Y108.501 E47.35583
G1 X116.168 Y108.764 E47.37599
G1 X116.402 Y109.032 E47.39256
G1 X116.558 Y109.324 E47.40797
G1 X116.661 Y109.645 E47.42367
G1 X116.706 Y110.105 E47.44519
G1 X116.624 Y110.508 E47.46434
G1 X116.495 Y110.808 E47.47955
G1 X116.29 Y111.104 E47.49631
G1 X116.046 Y111.337 E47.51202
G1 X115.679 Y111.567 E47.53219
G1 X115.174 Y111.7 E47.55651
;MESH:NONMESH
G0 F300 X115.174 Y111.7 Z3.92
G0 F10500 X115.21 Y112.105
;TIME_ELAPSED:116.706048
;LAYER:13
;note -- min layer time used
;TYPE:WALL-INNER
;MESH:Dystans.stl
G1 F600 X114.556 Y112.065 E47.58702
G1 X114.08 Y111.886 E47.6107
G1 X113.716 Y111.662 E47.6306
G1 X113.42 Y111.385 E47.64948
G1 X113.102 Y110.935 E47.67513
G1 X112.944 Y110.423 E47.70008
G1 X112.887 Y109.91 E47.72412
G1 X112.989 Y109.392 E47.7487
G1 X113.169 Y108.97 E47.77006
G1 X113.41 Y108.622 E47.78977
G1 X113.72 Y108.331 E47.80957
G1 X114.157 Y108.06 E47.83352
G1 X114.799 Y107.891 E47.86443
G1 X115.429 Y107.932 E47.89383
G1 X116.035 Y108.156 E47.92391
G1 X116.423 Y108.456 E47.94675
G1 X116.722 Y108.787 E47.96752
G1 X116.93 Y109.176 E47.98806
G1 X117.059 Y109.579 E48.00776
G1 X117.112 Y110.105 E48.03238
G1 X117.006 Y110.626 E48.05714
G1 X116.841 Y111.016 E48.07685
G1 X116.57 Y111.393 E48.09847
G1 X116.277 Y111.668 E48.11718
G1 X115.845 Y111.938 E48.14091
G1 X115.21 Y112.105 E48.17148
G0 F10500 X115.036 Y112.496
G1 F601.5 X115.366 Y112.473 E48.18684
G1 F600 X115.693 Y112.395 E48.2025
G1 F603 X115.982 Y112.299 E48.21661
G1 X116.296 Y112.128 E48.23317
G1 F588.2 X116.631 Y111.89 E48.25269
G1 F594.1 X116.96 Y111.556 E48.27474
G1 F604.5 X117.185 Y111.209 E48.29385
G1 F603 X117.332 Y110.888 E48.31021
G1 F597 X117.431 Y110.564 E48.32606
G1 F601.5 X117.499 Y110.182 E48.34409
G1 F595.5 X117.493 Y109.827 E48.36074
G1 F588.2 X117.431 Y109.424 E48.38011
G1 F591.1 X117.29 Y108.974 E48.4024
G1 F588.2 X117.012 Y108.505 E48.42829
G1 F595.5 X116.638 Y108.104 E48.45402
G1 F606.1 X116.294 Y107.857 E48.47354
G1 F603 X116.007 Y107.715 E48.48837
G1 F600 X115.691 Y107.598 E48.50406
G1 F607.6 X115.382 Y107.527 E48.51864
G1 F603 X115.047 Y107.502 E48.53421
G1 F607.6 X114.708 Y107.512 E48.5498
G1 F601.5 X114.302 Y107.599 E48.56909
G1 F588.2 X113.969 Y107.712 E48.58579
G1 F594.1 X113.632 Y107.91 E48.60417
G1 X113.375 Y108.101 E48.61923
G1 F598.5 X113.126 Y108.345 E48.6355
G1 F594.1 X112.934 Y108.598 E48.65044
G1 F592.6 X112.768 Y108.878 E48.66579
G1 F598.5 X112.642 Y109.174 E48.68081
G1 F591.1 X112.536 Y109.578 E48.70055
G1 F583.9 X112.488 Y109.983 E48.72006
G1 F594.1 X112.554 Y110.504 E48.74476
G1 F595.5 X112.64 Y110.814 E48.75985
G1 F601.5 X112.753 Y111.106 E48.77439
G1 F604.5 X112.924 Y111.383 E48.78944
G1 F600 X113.126 Y111.652 E48.8051
G1 F598.5 X113.415 Y111.933 E48.82392
G1 F586.8 X113.697 Y112.13 E48.8403
G1 F588.2 X114.06 Y112.309 E48.85952
G1 F603 X114.38 Y112.421 E48.87523
G1 F607.6 X114.709 Y112.478 E48.89058
G1 F598.5 X115.036 Y112.496 E48.90587
G0 F10500 X115.04 Y112.898
G1 F600 X115.425 Y112.866 E48.92386
G1 X115.805 Y112.782 E48.94198
G1 X116.14 Y112.661 E48.95856
G1 X116.504 Y112.473 E48.97764
G1 X116.895 Y112.198 E48.9999
G1 X117.288 Y111.79 E49.02628
G1 X117.535 Y111.4 E49.04777
G1 X117.706 Y111.032 E49.06667
G1 X117.822 Y110.657 E49.08495
G1 X117.896 Y110.216 E49.10577
G1 X117.899 Y109.796 E49.12533
G1 X117.822 Y109.331 E49.14727
G1 X117.701 Y108.945 E49.16611
G1 X117.597 Y108.698 E49.17859
G1 X117.291 Y108.214 E49.20525
G1 X116.959 Y107.861 E49.22782
G1 X116.754 Y107.688 E49.24031
G1 X116.495 Y107.515 E49.25481
G1 X116.167 Y107.347 E49.27197
G1 X115.803 Y107.214 E49.29002
G1 X115.443 Y107.135 E49.30718
G1 X115.053 Y107.099 E49.32541
G1 X114.661 Y107.121 E49.3437
G1 X114.19 Y107.208 E49.366
G1 X113.755 Y107.379 E49.38776
G1 X113.412 Y107.572 E49.40609
G1 X113.113 Y107.797 E49.42351
G1 X112.826 Y108.079 E49.44225
G1 X112.599 Y108.372 E49.45951
G1 X112.41 Y108.698 E49.47705
G1 X112.264 Y109.042 E49.49446
G1 X112.135 Y109.51 E49.51706
G1 X112.094 Y110.084 E49.54386
G1 X112.162 Y110.582 E49.56726
G1 X112.257 Y110.943 E49.58464
G1 X112.399 Y111.283 E49.6018
G1 X112.591 Y111.608 E49.61938
G1 X112.827 Y111.916 E49.63744
G1 X113.105 Y112.189 E49.65559
G1 X113.484 Y112.477 E49.67775
G1 X113.91 Y112.682 E49.69977
G1 X114.282 Y112.805 E49.71801
G1 X114.661 Y112.875 E49.73596
G1 X115.04 Y112.898 E49.75364
G0 F10500 X115.045 Y113.299
;TYPE:WALL-OUTER
G1 F600 X115.485 Y113.262 E49.7742
G1 X115.916 Y113.167 E49.79475
G1 X116.3 Y113.028 E49.81376
G1 X116.712 Y112.816 E49.83534
G1 X117.157 Y112.503 E49.86067
G1 X117.61 Y112.031 E49.89114
G1 X117.887 Y111.592 E49.91531
G1 X118.08 Y111.176 E49.93666
G1 X118.212 Y110.749 E49.95747
G1 X118.296 Y110.25 E49.98103
G1 X118.299 Y109.764 E50.00366
G1 X118.212 Y109.239 E50.02844
G1 X118.083 Y108.825 E50.04864
G1 X117.953 Y108.513 E50.06438
G1 X117.609 Y107.968 E50.09438
G1 X117.234 Y107.57 E50.11985
G1 X116.995 Y107.368 E50.13442
G1 X116.698 Y107.169 E50.15107
G1 X116.327 Y106.98 E50.17045
G1 X115.915 Y106.829 E50.19089
G1 X115.505 Y106.739 E50.21043
G1 X115.06 Y106.697 E50.23125
G1 X114.613 Y106.723 E50.25209
G1 X114.08 Y106.822 E50.27734
G1 X113.583 Y107.017 E50.3022
G1 X113.194 Y107.236 E50.32298
G1 X112.851 Y107.493 E50.34294
G1 X112.526 Y107.813 E50.36418
G1 X112.267 Y108.148 E50.3839
G1 X112.052 Y108.518 E50.40382
G1 X111.886 Y108.91 E50.42365
G1 X111.739 Y109.442 E50.44935
G1 X111.693 Y110.097 E50.47992
G1 X111.769 Y110.66 E50.50637
G1 X111.878 Y111.071 E50.52617
G1 X112.04 Y111.462 E50.54588
G1 X112.259 Y111.832 E50.5659
G1 X112.527 Y112.182 E50.58643
G1 X112.843 Y112.492 E50.60704
G1 X113.274 Y112.82 E50.63226
G1 X113.76 Y113.054 E50.65738
G1 X114.182 Y113.193 E50.67807
G1 X114.613 Y113.273 E50.69848
G1 X115.045 Y113.299 E50.71863
G1 F2700 E45.71863
G0 F10500 X115.031 Y112.599
G0 X115.174 Y111.7
G1 F2700 E50.71863
G1 F600 X114.659 Y111.673 E50.74264
G1 X114.253 Y111.525 E50.76277
G1 X113.958 Y111.344 E50.77888
G1 X113.699 Y111.095 E50.79561
G1 X113.471 Y110.767 E50.81421
G1 X113.338 Y110.352 E50.8345
G1 X113.292 Y109.91 E50.8552
G1 X113.375 Y109.498 E50.87477
G1 X113.515 Y109.171 E50.89133
G1 X113.705 Y108.897 E50.90686
G1 X113.974 Y108.641 E50.92415
G1 X114.307 Y108.436 E50.94236
G1 X114.816 Y108.297 E50.96692
G1 X115.343 Y108.324 E50.9915
G1 X115.823 Y108.501 E51.01532
G1 X116.163 Y108.76 E51.03522
G1 X116.409 Y109.045 E51.05275
G1 X116.561 Y109.33 E51.06779
G1 X116.661 Y109.644 E51.08314
G1 X116.709 Y110.074 E51.10328
G1 X116.624 Y110.508 E51.12388
G1 X116.477 Y110.839 E51.14074
G1 X116.274 Y111.122 E51.15696
G1 X116.023 Y111.354 E51.17287
G1 X115.665 Y111.573 E51.19241
G1 X115.174 Y111.7 E51.21603
;MESH:NONMESH
G0 F300 X115.174 Y111.7 Z4.2
G0 F10500 X115.212 Y112.105
;TIME_ELAPSED:125.328210
;LAYER:14
;note -- min layer time used
;TYPE:WALL-INNER
;MESH:Dystans.stl
G1 F600 X114.553 Y112.065 E51.24677
G1 X114.045 Y111.868 E51.27214
G1 X113.72 Y111.665 E51.28999
G1 X113.408 Y111.376 E51.30979
G1 X113.094 Y110.922 E51.33549
G1 X112.944 Y110.422 E51.3598
G1 X112.887 Y109.91 E51.38379
G1 X112.999 Y109.359 E51.40997
G1 X113.17 Y108.968 E51.42984
G1 X113.409 Y108.623 E51.44938
G1 X113.72 Y108.331 E51.46925
G1 X114.17 Y108.052 E51.4939
G1 X114.772 Y107.894 E51.52288
G1 X115.405 Y107.923 E51.55239
G1 X116.037 Y108.156 E51.58375
G1 X116.439 Y108.469 E51.60748
G1 X116.724 Y108.789 E51.62743
G1 X116.933 Y109.172 E51.64775
G1 X117.061 Y109.604 E51.66873
G1 X117.114 Y110.107 E51.69228
G1 X117.006 Y110.626 E51.71696
G1 X116.845 Y111.01 E51.73635
G1 X116.597 Y111.36 E51.75633
G1 X116.286 Y111.663 E51.77655
G1 X115.82 Y111.946 E51.80193
G1 X115.212 Y112.105 E51.8312
G0 F10500 X115.053 Y112.497
G1 F604.5 X115.364 Y112.474 E51.84561
G1 F603 X115.693 Y112.395 E51.86128
G1 F604.5 X116.006 Y112.29 E51.87654
G1 F603 X116.292 Y112.133 E51.89166
G1 F597 X116.562 Y111.946 E51.90703
G1 F600 X116.806 Y111.72 E51.92251
G1 F595.5 X117.02 Y111.461 E51.93827
G1 F597 X117.199 Y111.183 E51.95375
G1 F600 X117.331 Y110.891 E51.96867
G1 F597 X117.43 Y110.566 E51.98457
G1 X117.507 Y110.127 E52.00543
G1 F594.1 X117.481 Y109.748 E52.02329
G1 X117.431 Y109.428 E52.03852
G1 F597 X117.331 Y109.107 E52.05426
G1 F592.6 X117.196 Y108.815 E52.06943
G1 F597 X117.024 Y108.533 E52.08488
G1 F601.5 X116.806 Y108.276 E52.10054
G1 F594.1 X116.56 Y108.053 E52.11615
G1 F600 X116.296 Y107.858 E52.13143
G1 F603 X116.003 Y107.712 E52.1466
G1 F598.5 X115.694 Y107.599 E52.16196
G1 F604.5 X115.364 Y107.524 E52.1776
G1 F600 X115.051 Y107.502 E52.19221
G1 F594.1 X114.679 Y107.508 E52.20971
G1 F597 X114.22 Y107.626 E52.23189
G1 F603 X113.925 Y107.738 E52.24651
G1 F600 X113.632 Y107.91 E52.26233
G1 F594.1 X113.375 Y108.101 E52.27738
G1 F598.5 X113.127 Y108.344 E52.29359
G1 F595.5 X112.937 Y108.595 E52.30836
G1 F586.8 X112.728 Y108.956 E52.32822
G1 F591.1 X112.591 Y109.34 E52.34749
G1 F606.1 X112.504 Y109.768 E52.36762
G1 F600 X112.5 Y110.079 E52.38211
G1 F595.5 X112.554 Y110.503 E52.40216
G1 F597 X112.64 Y110.811 E52.41712
G1 X112.752 Y111.113 E52.4322
G1 X112.932 Y111.397 E52.44793
G1 X113.125 Y111.652 E52.4629
G1 F601.5 X113.393 Y111.911 E52.48021
G1 F595.5 X113.632 Y112.086 E52.49411
G1 X113.93 Y112.256 E52.5102
G1 F594.1 X114.302 Y112.401 E52.52898
G1 F600 X114.599 Y112.471 E52.54319
G1 F603 X115.053 Y112.497 E52.56426
G0 F10500 X115.059 Y112.898
G1 F600 X115.424 Y112.866 E52.58132
G1 X115.804 Y112.782 E52.59944
G1 X116.164 Y112.652 E52.61726
G1 X116.502 Y112.478 E52.63496
G1 X116.813 Y112.256 E52.65276
G1 X117.096 Y111.997 E52.67062
G1 X117.345 Y111.698 E52.68874
G1 X117.551 Y111.373 E52.70665
G1 X117.705 Y111.033 E52.72403
G1 X117.822 Y110.658 E52.74233
G1 X117.898 Y110.193 E52.76427
G1 X117.882 Y109.71 E52.78677
G1 X117.822 Y109.337 E52.80436
G1 X117.706 Y108.964 E52.82255
G1 X117.551 Y108.623 E52.83999
G1 X117.346 Y108.299 E52.85784
G1 X117.096 Y107.999 E52.87603
G1 X116.813 Y107.74 E52.89389
G1 X116.503 Y107.518 E52.91165
G1 X116.163 Y107.344 E52.92943
G1 X115.805 Y107.214 E52.94717
G1 X115.424 Y107.131 E52.96532
G1 X115.057 Y107.098 E52.98248
G1 X114.571 Y107.124 E53.00514
G1 X114.097 Y107.244 E53.02791
G1 X113.755 Y107.379 E53.04503
G1 X113.412 Y107.572 E53.06336
G1 X113.113 Y107.797 E53.08078
G1 X112.827 Y108.079 E53.09948
G1 X112.603 Y108.369 E53.11655
G1 X112.357 Y108.787 E53.13913
G1 X112.205 Y109.236 E53.1612
G1 X112.128 Y109.617 E53.1793
G1 X112.095 Y110.092 E53.20148
G1 X112.162 Y110.581 E53.22446
G1 X112.258 Y110.941 E53.24181
G1 X112.406 Y111.295 E53.25967
G1 X112.598 Y111.623 E53.27737
G1 X112.826 Y111.917 E53.29469
G1 X113.113 Y112.199 E53.31343
G1 X113.412 Y112.424 E53.33085
G1 X113.757 Y112.617 E53.34926
G1 X114.191 Y112.791 E53.37103
G1 X114.659 Y112.873 E53.39316
G1 X115.059 Y112.898 E53.41182
G0 F10500 X115.065 Y113.299
;TYPE:WALL-OUTER
G1 F600 X115.485 Y113.262 E53.43145
G1 X115.916 Y113.167 E53.452
G1 X116.324 Y113.02 E53.4722
G1 X116.711 Y112.82 E53.49248
G1 X117.065 Y112.568 E53.51272
G1 X117.386 Y112.273 E53.53302
G1 X117.669 Y111.934 E53.55358
G1 X117.903 Y111.564 E53.57396
G1 X118.08 Y111.176 E53.59382
G1 X118.212 Y110.75 E53.61459
G1 X118.299 Y110.219 E53.63964
G1 X118.28 Y109.672 E53.66513
G1 X118.212 Y109.246 E53.68522
G1 X118.08 Y108.82 E53.70598
G1 X117.903 Y108.432 E53.72584
G1 X117.67 Y108.063 E53.74616
G1 X117.386 Y107.723 E53.76679
G1 X117.065 Y107.428 E53.78709
G1 X116.711 Y107.176 E53.80733
G1 X116.323 Y106.976 E53.82765
G1 X115.916 Y106.829 E53.8478
G1 X115.485 Y106.735 E53.86834
G1 X115.064 Y106.697 E53.88803
G1 X114.511 Y106.727 E53.91381
G1 X113.974 Y106.863 E53.93961
G1 X113.583 Y107.017 E53.95918
G1 X113.194 Y107.236 E53.97996
G1 X112.851 Y107.493 E53.99992
G1 X112.527 Y107.813 E54.02112
G1 X112.271 Y108.145 E54.04065
G1 X111.991 Y108.62 E54.06632
G1 X111.818 Y109.132 E54.09149
G1 X111.731 Y109.563 E54.11196
G1 X111.693 Y110.105 E54.13726
G1 X111.769 Y110.66 E54.16334
G1 X111.878 Y111.071 E54.18314
G1 X112.048 Y111.474 E54.20351
G1 X112.266 Y111.847 E54.22363
G1 X112.526 Y112.183 E54.24341
G1 X112.851 Y112.503 E54.26465
G1 X113.194 Y112.76 E54.28461
G1 X113.583 Y112.979 E54.30539
G1 X114.08 Y113.178 E54.33032
G1 X114.612 Y113.272 E54.35548
G1 X115.065 Y113.299 E54.37661
G1 F2700 E49.37661
G0 F10500 X115.046 Y112.599
G0 X115.174 Y111.7
G1 F2700 E54.37661
G1 F600 X114.661 Y111.673 E54.40053
G1 X114.258 Y111.527 E54.42049
G1 X113.96 Y111.345 E54.43675
G1 X113.699 Y111.095 E54.45358
G1 X113.471 Y110.766 E54.47221
G1 X113.333 Y110.328 E54.4936
G1 X113.292 Y109.91 E54.51315
G1 X113.378 Y109.487 E54.53325
G1 X113.515 Y109.17 E54.54933
G1 X113.705 Y108.897 E54.56482
G1 X113.974 Y108.641 E54.58211
G1 X114.307 Y108.436 E54.60032
G1 X114.822 Y108.294 E54.6252
G1 X115.343 Y108.324 E54.6495
G1 X115.824 Y108.501 E54.67336
G1 X116.168 Y108.764 E54.69353
G1 X116.402 Y109.032 E54.71009
G1 X116.558 Y109.324 E54.72551
G1 X116.661 Y109.645 E54.74121
G1 X116.706 Y110.105 E54.76273
G1 X116.624 Y110.508 E54.78188
G1 X116.495 Y110.808 E54.79708
G1 X116.29 Y111.104 E54.81385
G1 X116.046 Y111.337 E54.82956
G1 X115.679 Y111.567 E54.84973
G1 X115.174 Y111.7 E54.87404
;MESH:NONMESH
G0 F300 X115.174 Y111.7 Z4.48
G0 F10500 X115.212 Y112.105
;TIME_ELAPSED:133.946671
;LAYER:15
;note -- min layer time used
;TYPE:WALL-INNER
;MESH:Dystans.stl
G1 F600 X114.553 Y112.065 E54.90479
G1 X114.045 Y111.868 E54.93016
G1 X113.72 Y111.665 E54.948
G1 X113.408 Y111.376 E54.9678
G1 X113.094 Y110.922 E54.99351
G1 X112.944 Y110.422 E55.01781
G1 X112.887 Y109.91 E55.0418
G1 X112.999 Y109.359 E55.06798
G1 X113.17 Y108.968 E55.08786
G1 X113.409 Y108.623 E55.1074
G1 X113.72 Y108.331 E55.12726
G1 X114.17 Y108.052 E55.15192
G1 X114.772 Y107.894 E55.1809
G1 X115.405 Y107.923 E55.2104
G1 X116.037 Y108.156 E55.24177
G1 X116.439 Y108.469 E55.26549
G1 X116.724 Y108.789 E55.28545
G1 X116.933 Y109.172 E55.30576
G1 X117.061 Y109.604 E55.32674
G1 X117.114 Y110.107 E55.35029
G1 X117.006 Y110.626 E55.37498
G1 X116.845 Y111.01 E55.39437
G1 X116.597 Y111.36 E55.41434
G1 X116.286 Y111.663 E55.43456
G1 X115.82 Y111.946 E55.45995
G1 X115.212 Y112.105 E55.48921
G0 F10500 X115.053 Y112.497
G1 F604.5 X115.364 Y112.474 E55.50362
G1 F603 X115.693 Y112.395 E55.5193
G1 F604.5 X116.006 Y112.29 E55.53456
G1 F603 X116.292 Y112.133 E55.54967
G1 F597 X116.562 Y111.946 E55.56504
G1 F600 X116.806 Y111.72 E55.58053
G1 F595.5 X117.02 Y111.461 E55.59629
G1 F597 X117.199 Y111.183 E55.61176
G1 F600 X117.331 Y110.891 E55.62668
G1 F597 X117.43 Y110.566 E55.64258
G1 X117.507 Y110.127 E55.66344
G1 F594.1 X117.481 Y109.748 E55.68131
G1 X117.431 Y109.428 E55.69654
G1 F597 X117.331 Y109.107 E55.71227
G1 F592.6 X117.196 Y108.815 E55.72744
G1 F597 X117.024 Y108.533 E55.7429
G1 F601.5 X116.806 Y108.276 E55.75855
G1 F594.1 X116.56 Y108.053 E55.77417
G1 F600 X116.296 Y107.858 E55.78945
G1 F603 X116.003 Y107.712 E55.80462
G1 F598.5 X115.694 Y107.599 E55.81997
G1 F604.5 X115.364 Y107.524 E55.83561
G1 F600 X115.051 Y107.502 E55.85022
G1 F594.1 X114.679 Y107.508 E55.86772
G1 F597 X114.22 Y107.626 E55.8899
G1 F603 X113.925 Y107.738 E55.90452
G1 F600 X113.632 Y107.91 E55.92034
G1 F594.1 X113.375 Y108.101 E55.9354
G1 F598.5 X113.127 Y108.344 E55.95161
G1 F595.5 X112.937 Y108.595 E55.96638
G1 F586.8 X112.728 Y108.956 E55.98624
G1 F591.1 X112.591 Y109.34 E56.00551
G1 F606.1 X112.504 Y109.768 E56.02564
G1 F600 X112.5 Y110.079 E56.04012
G1 F595.5 X112.554 Y110.503 E56.06017
G1 F597 X112.64 Y110.811 E56.07514
G1 X112.752 Y111.113 E56.09021
G1 X112.932 Y111.397 E56.10595
G1 X113.125 Y111.652 E56.12091
G1 F601.5 X113.393 Y111.911 E56.13822
G1 F595.5 X113.632 Y112.086 E56.15212
G1 X113.93 Y112.256 E56.16822
G1 F594.1 X114.302 Y112.401 E56.18699
G1 F600 X114.599 Y112.471 E56.2012
G1 F603 X115.053 Y112.497 E56.22227
G0 F10500 X115.059 Y112.898
G1 F600 X115.424 Y112.866 E56.23933
G1 X115.804 Y112.782 E56.25745
G1 X116.164 Y112.652 E56.27528
G1 X116.502 Y112.478 E56.29298
G1 X116.813 Y112.256 E56.31077
G1 X117.096 Y111.997 E56.32863
G1 X117.345 Y111.698 E56.34675
G1 X117.551 Y111.373 E56.36467
G1 X117.705 Y111.033 E56.38205
G1 X117.822 Y110.658 E56.40034
G1 X117.898 Y110.193 E56.42228
G1 X117.882 Y109.71 E56.44478
G1 X117.822 Y109.337 E56.46237
G1 X117.706 Y108.964 E56.48056
G1 X117.551 Y108.623 E56.49801
G1 X117.346 Y108.299 E56.51586
G1 X117.096 Y107.999 E56.53404
G1 X116.813 Y107.74 E56.55191
G1 X116.503 Y107.518 E56.56966
G1 X116.163 Y107.344 E56.58744
